; HEADER_BLOCK_START
; generated by Creality_Print V6.0.4.1794 on 2025-03-06 at 21:05:43
; total layer number: 27
; filament_density: 1.24
; filament_diameter: 1.75
; max_z_height: 5.40
; HEADER_BLOCK_END

; MINX = 84.40
; MINY = 87.15
; MINZ = 0.00
; MAXX = 122.07
; MAXY = 123.03
; MAXZ = 5.40

; THUMBNAIL_BLOCK_START

;
; THUMBNAIL_BLOCK_END

; THUMBNAIL_BLOCK_START

;
; THUMBNAIL_BLOCK_END

; external perimeters extrusion width = 0.42mm
; perimeters extrusion width = 0.45mm
; infill extrusion width = 0.45mm
; solid infill extrusion width = 0.42mm
; top infill extrusion width = 0.42mm
; first layer extrusion width = 0.50mm

; EXECUTABLE_BLOCK_START
EXCLUDE_OBJECT_DEFINE NAME=task1.STL_id_0_copy_0 CENTER=103.234,105.087 POLYGON=[[84.4009,109.249],[91.709,87.1456],[114.989,87.2658],[122.068,109.443],[103.164,123.029],[84.4009,109.249]]
M73 P0 R5
;TYPE:Custom
M220 S100 ;Reset Feedrate 
M221 S100 ;Reset Flowrate 
 
M140 S50 ;Set final bed temp  
G28 ;Home 
 
G92 E0 ;Reset Extruder 
G1 Z2.0 F3000 ;Move Z Axis up 
M104 S220 ;Set final nozzle temp  
G1 X-2.0 Y20 Z0.28 F5000.0 ;Move to start position 
M190 S50 ;Wait for bed temp to stabilize  
M109 S220 ;Wait for nozzle temp to stabilize  
G1 X-2.0 Y145.0 Z0.28 F1500.0 E15 ;Draw the first line 
G1 X-1.7 Y145.0 Z0.28 F5000.0 ;Move to side a little 
M73 P1 R5
M73 P1 R5
G1 X-1.7 Y20 Z0.28 F1500.0 E30 ;Draw the second line 
G92 E0 ;Reset Extruder 
G1 E-1.0000 F1800 ;Retract a bit 
M73 P3 R5
M73 P3 R5
G1 Z2.0 F3000 ;Move Z Axis up 
G1 E0.0000 F1800
G90
G21
M83 ; use relative distances for extrusion
; filament start gcode
SET_PRESSURE_ADVANCE ADVANCE=0.044; Override pressure advance value
G1 E-.8 F1800
M106 S0
;LAYER_CHANGE
;Z:0.2
;HEIGHT:0.2
;BEFORE_LAYER_CHANGE
;0.2
G92 E0

;_SET_FAN_SPEED_CHANGING_LAYER
SET_VELOCITY_LIMIT ACCEL=500 ACCEL_TO_DECEL=125
SET_VELOCITY_LIMIT SQUARE_CORNER_VELOCITY=9
; printing object task1.STL id:0 copy 0
EXCLUDE_OBJECT_START NAME=task1.STL_id_0_copy_0
G1 Z.2 F18000
G1 X120.656 Y109.402
G1 E.8 F1800
M73 P3 R4
;TYPE:Inner wall
;WIDTH:0.499999
M73 P3 R4
G1 F3000
G1 X103.169 Y121.97 E.77752
G1 X85.41 Y108.926 E.79557
G1 X92.327 Y88.006 E.79557
M73 P4 R4
M73 P4 R4
G1 X114.361 Y88.12 E.79557
G1 X121.062 Y109.111 E.79557
G1 X120.689 Y109.379 E.01661
G1 X121.598 Y109.288 F18000
;TYPE:Outer wall
G1 F3000
G1 X103.166 Y122.535 E.81955
G1 X84.872 Y109.098 E.81955
G1 X91.998 Y87.547 E.81955
G1 X114.696 Y87.664 E.81955
M73 P5 R4
M73 P5 R4
G1 X121.586 Y109.25 E.81811
G1 X121.52 Y109.304
G1 E-.56 F1800
;WIPE_START
G1 F3000
G1 X120.775 Y109.835 E-.24
;WIPE_END
G1 Z.4 F18000
G1 X114.7 Y89.63
G1 Z.4
G1 Z.2
G1 E.8 F1800
;TYPE:Bottom surface
;WIDTH:0.502381
G1 F6300
G1 X113.528 Y88.458 E.06015
G1 X112.875 Y88.455 E.02371
G1 X114.687 Y90.267 E.09303
G1 X114.992 Y91.222 E.03636
G1 X112.221 Y88.451 E.1422
G1 X111.568 Y88.448 E.02371
G1 X115.296 Y92.176 E.19136
G1 X115.601 Y93.131 E.03636
G1 X110.915 Y88.445 E.24052
G1 X110.262 Y88.441 E.02371
G1 X115.906 Y94.085 E.28969
G1 X116.211 Y95.04 E.03636
M73 P6 R4
M73 P6 R4
G1 X109.609 Y88.438 E.33885
G1 X108.956 Y88.435 E.02371
G1 X116.515 Y95.994 E.38801
G1 X116.82 Y96.949 E.03636
G1 X108.303 Y88.431 E.43718
G1 X107.649 Y88.428 E.02371
G1 X117.125 Y97.903 E.48634
G1 X117.429 Y98.857 E.03636
G1 X106.996 Y88.424 E.5355
G1 X106.343 Y88.421 E.02371
G1 X117.734 Y99.812 E.58467
G1 X118.039 Y100.766 E.03636
G1 X105.69 Y88.418 E.63383
G1 X105.037 Y88.414 E.02371
G1 X118.343 Y101.721 E.68299
G1 X118.648 Y102.675 E.03636
G1 X104.384 Y88.411 E.73216
G1 X103.73 Y88.408 E.02371
M73 P7 R4
M73 P7 R4
G1 X118.953 Y103.63 E.78132
G1 X119.257 Y104.584 E.03636
G1 X103.077 Y88.404 E.83048
G1 X102.424 Y88.401 E.02371
G1 X119.562 Y105.539 E.87964
G1 X119.867 Y106.493 E.03636
G1 X101.771 Y88.397 E.92881
G1 X101.118 Y88.394 E.02371
G1 X120.171 Y107.448 E.97797
G1 X120.476 Y108.402 E.03636
G1 X100.465 Y88.391 E1.02713
G1 X99.812 Y88.387 E.02371
G1 X120.51 Y109.085 E1.06238
G1 X120.132 Y109.357 E.0169
M73 P8 R4
M73 P8 R4
G1 X99.158 Y88.384 E1.0765
G1 X98.505 Y88.381 E.02371
G1 X119.754 Y109.629 E1.09062
G1 X119.375 Y109.901 E.0169
G1 X97.852 Y88.377 E1.10474
G1 X97.199 Y88.374 E.02371
G1 X118.997 Y110.172 E1.11886
G1 X118.619 Y110.444 E.0169
G1 X96.546 Y88.37 E1.13298
G1 X95.893 Y88.367 E.02371
G1 X118.241 Y110.716 E1.1471
G1 X117.863 Y110.987 E.0169
M73 P9 R4
M73 P9 R4
G1 X95.24 Y88.364 E1.16122
G1 X94.586 Y88.36 E.02371
G1 X117.485 Y111.259 E1.17534
G1 X117.107 Y111.531 E.0169
G1 X93.933 Y88.357 E1.18946
G1 X93.28 Y88.354 E.02371
G1 X116.729 Y111.802 E1.20358
G1 X116.351 Y112.074 E.0169
G1 X92.627 Y88.35 E1.2177
G1 X92.575 Y88.35 E.0019
G1 X92.426 Y88.799 E.01717
G1 X115.973 Y112.346 E1.2086
G1 X115.595 Y112.618 E.0169
M73 P10 R4
M73 P10 R4
G1 X92.265 Y89.287 E1.19748
G1 X92.103 Y89.776 E.01867
G1 X115.217 Y112.889 E1.18637
G1 X114.839 Y113.161 E.0169
G1 X91.942 Y90.264 E1.17525
G1 X91.78 Y90.752 E.01867
G1 X114.461 Y113.433 E1.16413
G1 X114.083 Y113.704 E.0169
G1 X91.619 Y91.241 E1.15301
G1 X91.457 Y91.729 E.01867
G1 X113.704 Y113.976 E1.14189
G1 X113.326 Y114.248 E.0169
M73 P11 R4
M73 P11 R4
G1 X91.296 Y92.217 E1.13078
G1 X91.134 Y92.706 E.01867
G1 X112.948 Y114.52 E1.11966
G1 X112.57 Y114.791 E.0169
G1 X90.973 Y93.194 E1.10854
G1 X90.811 Y93.682 E.01867
G1 X112.192 Y115.063 E1.09742
G1 X111.814 Y115.335 E.0169
G1 X90.65 Y94.171 E1.0863
G1 X90.489 Y94.659 E.01867
G1 X111.436 Y115.606 E1.07519
G1 X111.058 Y115.878 E.0169
G1 X90.327 Y95.147 E1.06407
G1 X90.166 Y95.636 E.01867
M73 P12 R4
M73 P12 R4
G1 X110.68 Y116.15 E1.05295
G1 X110.302 Y116.422 E.0169
G1 X90.004 Y96.124 E1.04183
G1 X89.843 Y96.612 E.01867
G1 X109.924 Y116.693 E1.03071
G1 X109.546 Y116.965 E.0169
G1 X89.681 Y97.101 E1.01959
G1 X89.52 Y97.589 E.01867
G1 X109.168 Y117.237 E1.00848
G1 X108.79 Y117.508 E.0169
G1 X89.358 Y98.077 E.99736
G1 X89.197 Y98.565 E.01867
M73 P13 R4
M73 P13 R4
G1 X108.412 Y117.78 E.98624
G1 X108.033 Y118.052 E.0169
G1 X89.035 Y99.054 E.97512
G1 X88.874 Y99.542 E.01867
G1 X107.655 Y118.324 E.964
G1 X107.277 Y118.595 E.0169
G1 X88.713 Y100.03 E.95289
G1 X88.551 Y100.519 E.01867
G1 X106.899 Y118.867 E.94177
G1 X106.521 Y119.139 E.0169
G1 X88.39 Y101.007 E.93065
G1 X88.228 Y101.495 E.01867
G1 X106.143 Y119.41 E.91953
G1 X105.765 Y119.682 E.0169
M73 P14 R4
M73 P14 R4
G1 X88.067 Y101.984 E.90841
G1 X87.905 Y102.472 E.01867
G1 X105.387 Y119.954 E.8973
G1 X105.009 Y120.225 E.0169
G1 X87.744 Y102.96 E.88618
G1 X87.582 Y103.449 E.01867
G1 X104.631 Y120.497 E.87506
G1 X104.253 Y120.769 E.0169
G1 X87.421 Y103.937 E.86394
G1 X87.259 Y104.425 E.01867
G1 X103.875 Y121.041 E.85282
G1 X103.497 Y121.312 E.0169
G1 X87.098 Y104.914 E.84171
G1 X86.936 Y105.402 E.01867
M73 P15 R4
M73 P15 R4
G1 X102.83 Y121.295 E.81575
G1 X100.383 Y119.498 E.11019
G1 X86.775 Y105.89 E.69844
G1 X86.614 Y106.379 E.01867
G1 X97.936 Y117.701 E.58113
G1 X95.488 Y115.903 E.11019
G1 X86.452 Y106.867 E.46381
G1 X86.291 Y107.355 E.01867
G1 X93.041 Y114.106 E.3465
G1 X90.594 Y112.309 E.11019
G1 X86.129 Y107.844 E.22919
G1 X85.968 Y108.332 E.01867
G1 X89.108 Y111.473 E.16121
G1 E-.56 F1800
;WIPE_START
G1 F6300
G1 X88.401 Y110.765 E-.24
;WIPE_END
G1 X91.471 Y113.032 Z.4 F18000
G1 X99.44 Y118.915 Z.4
G1 Z.2
G1 E.8 F1800
;TYPE:Gap infill
;WIDTH:0.121017
G1 F3000
G1 X99.181 Y118.694 E.0021
;WIDTH:0.167511
G1 X98.923 Y118.472 E.00335
;WIDTH:0.214004
G1 X98.664 Y118.25 E.0046
M73 P16 R4
;WIDTH:0.260498
M73 P16 R4
G1 X98.406 Y118.028 E.00585
;WIDTH:0.283745
G1 X98.148 Y117.806 E.00648
G1 E-.56 F1800
;WIPE_START
G1 F3000
G1 X98.406 Y118.028 E-.24
;WIPE_END
G1 X95.281 Y115.837 Z.4 F18000
G1 X94.545 Y115.321 Z.4
G1 Z.2
G1 E.8 F1800
;WIDTH:0.121017
G1 F3000
G1 X94.287 Y115.099 E.0021
;WIDTH:0.16751
G1 X94.029 Y114.877 E.00335
;WIDTH:0.214004
G1 X93.77 Y114.655 E.0046
;WIDTH:0.260498
G1 X93.512 Y114.434 E.00585
;WIDTH:0.283745
G1 X93.253 Y114.212 E.00648
G1 E-.56 F1800
;WIPE_START
G1 F3000
G1 X93.512 Y114.434 E-.24
;WIPE_END
G1 X90.387 Y112.243 Z.4 F18000
G1 X89.651 Y111.726 Z.4
G1 Z.2
G1 E.8 F1800
;WIDTH:0.115756
G1 F3000
G1 X89.437 Y111.542 E.00163
;WIDTH:0.133743
G1 X89.223 Y111.358 E.00203
G1 E-.56 F1800
;WIPE_START
G1 F3000
G1 X89.437 Y111.542 E-.24
;WIPE_END
G1 X87.204 Y109.929 Z.4 F18000
G1 Z.2
G1 E.8 F1800
;WIDTH:0.119722
G1 F3000
G1 X86.96 Y109.719 E.00196
;WIDTH:0.163627
G1 X86.715 Y109.509 E.00308
;WIDTH:0.207532
G1 X86.47 Y109.299 E.00419
;WIDTH:0.251437
G1 X86.225 Y109.089 E.00531
;WIDTH:0.295342
G1 X85.981 Y108.879 E.00643
;WIDTH:0.317294
G1 X85.736 Y108.669 E.00699
; stop printing object task1.STL id:0 copy 0
;TIME_ELAPSED:51.036552

M106 S255
;LAYER_CHANGE
;Z:0.4
;HEIGHT:0.2
;BEFORE_LAYER_CHANGE
;0.4
G92 E0

G1 E-.56 F1800
;WIPE_START
G1 F3000
G1 X85.981 Y108.879 E-.24
;WIPE_END
EXCLUDE_OBJECT_END NAME=task1.STL_id_0_copy_0
;_SET_FAN_SPEED_CHANGING_LAYER
SET_VELOCITY_LIMIT ACCEL=5000 ACCEL_TO_DECEL=1250
SET_VELOCITY_LIMIT SQUARE_CORNER_VELOCITY=12
M140 S50 ; set bed temperature
; printing object task1.STL id:0 copy 0
EXCLUDE_OBJECT_START NAME=task1.STL_id_0_copy_0
G1 X89.796 Y108.943 Z.4 F18000
G1 X120.996 Y109.472 Z.4
G1 E.8 F1800
SET_VELOCITY_LIMIT SQUARE_CORNER_VELOCITY=9
;TYPE:Inner wall
;WIDTH:0.449999
G1 F16950.025
G1 X103.168 Y122.285 E.70599
G1 X85.11 Y109.022 E.72046
G1 X92.143 Y87.75 E.72046
G1 X114.548 Y87.866 E.72046
G1 X121.361 Y109.209 E.72046
G1 X121.028 Y109.449 E.01318
SET_VELOCITY_LIMIT SQUARE_CORNER_VELOCITY=12
G1 X121.821 Y109.362 F18000
SET_VELOCITY_LIMIT ACCEL=2000 ACCEL_TO_DECEL=500 SQUARE_CORNER_VELOCITY=9
;TYPE:Outer wall
;WIDTH:0.419999
G1 F12000
G1 X103.165 Y122.77 E.68434
G1 X84.648 Y109.17 E.68434
G1 X91.86 Y87.356 E.68434
G1 X114.835 Y87.475 E.68434
G1 X121.809 Y109.324 E.68314
G1 X121.743 Y109.378
M73 P17 R4
M73 P17 R4
G1 E-.56 F1800
;WIPE_START
G1 F12000
G1 X120.998 Y109.908 E-.24
;WIPE_END
SET_VELOCITY_LIMIT ACCEL=5000 ACCEL_TO_DECEL=1250 SQUARE_CORNER_VELOCITY=12
G1 Z.6 F18000
G1 X118.489 Y111.151
G1 Z.6
G1 Z.4
G1 E.8 F1800
;TYPE:Internal solid infill
;WIDTH:0.422124
G1 F15000
G1 X120.921 Y108.718 E.10304
G1 X120.791 Y108.312 E.01278
G1 X117.325 Y111.778 E.14684
G1 X115.419 Y113.148 E.07032
G1 X120.662 Y107.905 E.22209
G1 X120.532 Y107.499 E.01278
G1 X113.513 Y114.518 E.29735
G1 X111.606 Y115.888 E.07032
G1 X120.402 Y107.092 E.37261
G1 X120.272 Y106.686 E.01278
G1 X109.7 Y117.258 E.44786
G1 X107.794 Y118.628 E.07032
G1 X120.143 Y106.279 E.52312
G1 X120.013 Y105.873 E.01278
G1 X105.887 Y119.998 E.59838
G1 X103.981 Y121.368 E.07032
G1 X119.883 Y105.466 E.67363
G1 X119.753 Y105.06 E.01278
G1 X102.992 Y121.821 E.71005
G1 X102.683 Y121.594 E.01149
G1 X119.623 Y104.653 E.71765
G1 X119.494 Y104.246 E.01278
G1 X102.373 Y121.367 E.72525
G1 X102.064 Y121.14 E.01149
G1 X119.364 Y103.84 E.73285
G1 X119.234 Y103.433 E.01278
G1 X101.755 Y120.913 E.74045
G1 X101.446 Y120.686 E.01149
G1 X119.104 Y103.027 E.74805
G1 X118.975 Y102.62 E.01278
G1 X101.137 Y120.458 E.75565
G1 X100.827 Y120.231 E.01149
G1 X118.845 Y102.214 E.76325
G1 X118.715 Y101.807 E.01278
G1 X100.518 Y120.004 E.77085
G1 X100.209 Y119.777 E.01149
G1 X118.585 Y101.401 E.77845
G1 X118.456 Y100.994 E.01278
G1 X99.9 Y119.55 E.78605
G1 X99.591 Y119.323 E.01149
M73 P18 R4
M73 P18 R4
G1 X118.326 Y100.588 E.79365
G1 X118.196 Y100.181 E.01278
G1 X99.282 Y119.096 E.80125
G1 X98.972 Y118.869 E.01149
G1 X118.066 Y99.775 E.80886
G1 X117.936 Y99.368 E.01278
G1 X98.663 Y118.642 E.81646
G1 X98.354 Y118.415 E.01149
G1 X117.807 Y98.962 E.82406
G1 X117.677 Y98.555 E.01278
G1 X98.045 Y118.188 E.83166
G1 X97.736 Y117.96 E.01149
G1 X117.547 Y98.149 E.83926
G1 X117.417 Y97.742 E.01278
G1 X97.426 Y117.733 E.84686
G1 X97.117 Y117.506 E.01149
G1 X117.288 Y97.336 E.85446
G1 X117.158 Y96.929 E.01278
G1 X96.808 Y117.279 E.86206
G1 X96.499 Y117.052 E.01149
G1 X117.028 Y96.523 E.86966
G1 X116.898 Y96.116 E.01278
G1 X96.19 Y116.825 E.87726
G1 X95.88 Y116.598 E.01149
G1 X116.769 Y95.71 E.88486
G1 X116.639 Y95.303 E.01278
G1 X95.571 Y116.371 E.89246
G1 X95.262 Y116.144 E.01149
G1 X116.509 Y94.897 E.90006
G1 X116.379 Y94.49 E.01278
G1 X94.953 Y115.917 E.90766
G1 X94.644 Y115.69 E.01149
G1 X116.25 Y94.084 E.91526
G1 X116.12 Y93.677 E.01278
G1 X94.335 Y115.462 E.92287
G1 X94.025 Y115.235 E.01149
M73 P19 R4
M73 P19 R4
G1 X115.99 Y93.271 E.93047
G1 X115.86 Y92.864 E.01278
G1 X93.716 Y115.008 E.93807
G1 X93.407 Y114.781 E.01149
G1 X115.73 Y92.458 E.94567
G1 X115.601 Y92.051 E.01278
G1 X93.098 Y114.554 E.95327
G1 X92.789 Y114.327 E.01149
G1 X115.471 Y91.645 E.96087
G1 X115.341 Y91.238 E.01278
G1 X92.479 Y114.1 E.96847
G1 X92.17 Y113.873 E.01149
G1 X115.211 Y90.832 E.97607
G1 X115.082 Y90.425 E.01278
G1 X91.861 Y113.646 E.98367
G1 X91.552 Y113.419 E.01149
G1 X114.952 Y90.019 E.99127
G1 X114.822 Y89.612 E.01278
G1 X91.243 Y113.192 E.99887
G1 X90.933 Y112.965 E.01149
G1 X114.692 Y89.206 E1.00647
G1 X114.563 Y88.799 E.01278
G1 X90.624 Y112.737 E1.01407
G1 X90.315 Y112.51 E.01149
G1 X114.433 Y88.393 E1.02167
G1 X114.35 Y88.135 E.00811
G1 X114.156 Y88.134 E.00584
G1 X90.006 Y112.283 E1.02303
G1 X89.697 Y112.056 E.01149
G1 X113.622 Y88.131 E1.01352
G1 X113.089 Y88.128 E.01598
G1 X89.387 Y111.829 E1.00402
G1 X89.078 Y111.602 E.01149
M73 P20 R4
M73 P20 R4
G1 X112.555 Y88.125 E.99452
G1 X112.022 Y88.123 E.01598
G1 X88.769 Y111.375 E.98502
G1 X88.46 Y111.148 E.01149
G1 X111.488 Y88.12 E.97551
G1 X110.954 Y88.117 E.01598
G1 X88.151 Y110.921 E.96601
G1 X87.842 Y110.694 E.01149
G1 X110.421 Y88.114 E.95651
G1 X109.887 Y88.112 E.01598
G1 X87.532 Y110.467 E.947
G1 X87.223 Y110.239 E.01149
G1 X109.354 Y88.109 E.9375
G1 X108.82 Y88.106 E.01598
G1 X86.914 Y110.012 E.928
G1 X86.605 Y109.785 E.01149
G1 X108.287 Y88.103 E.91849
G1 X107.753 Y88.1 E.01598
G1 X86.296 Y109.558 E.90899
G1 X85.986 Y109.331 E.01149
G1 X107.22 Y88.098 E.89949
G1 X106.686 Y88.095 E.01598
G1 X85.677 Y109.104 E.88998
G1 X85.428 Y108.921 E.00927
G1 X85.479 Y108.766 E.00488
G1 X106.153 Y88.092 E.87579
G1 X105.619 Y88.089 E.01598
G1 X85.744 Y107.965 E.84197
G1 X86.009 Y107.164 E.02528
G1 X105.086 Y88.087 E.80814
G1 X104.552 Y88.084 E.01598
G1 X86.274 Y106.363 E.77432
G1 X86.538 Y105.561 E.02528
G1 X104.019 Y88.081 E.7405
G1 X103.485 Y88.078 E.01598
M73 P21 R4
M73 P21 R4
G1 X86.803 Y104.76 E.70668
G1 X87.068 Y103.959 E.02528
G1 X102.952 Y88.076 E.67285
G1 X102.418 Y88.073 E.01598
G1 X87.333 Y103.158 E.63903
G1 X87.598 Y102.357 E.02528
G1 X101.885 Y88.07 E.60521
G1 X101.351 Y88.067 E.01598
G1 X87.863 Y101.556 E.57139
G1 X88.128 Y100.754 E.02528
G1 X100.818 Y88.065 E.53756
G1 X100.284 Y88.062 E.01598
G1 X88.393 Y99.953 E.50374
G1 X88.658 Y99.152 E.02528
G1 X99.751 Y88.059 E.46992
G1 X99.217 Y88.056 E.01598
G1 X88.923 Y98.351 E.43609
G1 X89.187 Y97.55 E.02528
G1 X98.684 Y88.054 E.40227
G1 X98.15 Y88.051 E.01598
G1 X89.452 Y96.749 E.36845
G1 X89.717 Y95.947 E.02528
G1 X97.616 Y88.048 E.33463
G1 X97.083 Y88.045 E.01598
G1 X89.982 Y95.146 E.3008
G1 X90.247 Y94.345 E.02528
G1 X96.549 Y88.043 E.26698
G1 X96.016 Y88.04 E.01598
G1 X90.512 Y93.544 E.23316
G1 X90.777 Y92.743 E.02528
G1 X95.482 Y88.037 E.19934
G1 X94.949 Y88.034 E.01598
G1 X91.042 Y91.942 E.16551
G1 X91.307 Y91.14 E.02528
G1 X94.415 Y88.032 E.13169
G1 X93.882 Y88.029 E.01598
G1 X91.572 Y90.339 E.09787
G1 X91.836 Y89.538 E.02528
G1 X93.348 Y88.026 E.06405
G1 X92.815 Y88.023 E.01598
G1 X91.834 Y89.004 E.04153
G1 X103.797 Y121.444 F18000
;TYPE:Gap infill
;WIDTH:0.231888
G1 F6000
G1 X103.575 Y121.631 E.00433
;WIDTH:0.193042
G1 X103.354 Y121.819 E.00344
;WIDTH:0.173619
G1 X103.133 Y122.007 E.003
G1 X107.609 Y118.704 F18000
;WIDTH:0.230919
G1 F6000
G1 X107.393 Y118.887 E.00421
;WIDTH:0.190133
G1 X107.177 Y119.071 E.0033
;WIDTH:0.149348
G1 X106.961 Y119.254 E.00238
;WIDTH:0.128955
G1 X106.745 Y119.437 E.00193
G1 X111.422 Y115.964 F18000
;WIDTH:0.230919
G1 F6000
G1 X111.206 Y116.147 E.00421
;WIDTH:0.190133
G1 X110.99 Y116.33 E.0033
;WIDTH:0.149348
G1 X110.774 Y116.514 E.00238
;WIDTH:0.128955
G1 X110.558 Y116.697 E.00193
G1 X115.234 Y113.223 F18000
;WIDTH:0.23092
G1 F6000
G1 X115.018 Y113.407 E.00421
;WIDTH:0.190134
G1 X114.802 Y113.59 E.0033
;WIDTH:0.149348
G1 X114.586 Y113.774 E.00238
;WIDTH:0.128955
G1 X114.371 Y113.957 E.00193
