; HEADER_BLOCK_START
; generated by Creality_Print V6.1.1.2274 on 2025-05-20 at 08:48:48
; total layer number: 65
; filament_density: 1.24
; filament_diameter: 1.75
; max_z_height: 13.00
; HEADER_BLOCK_END

; MINX = 90.67
; MINY = 90.01
; MINZ = 0.00
; MAXX = 129.33
; MAXY = 129.99
; MAXZ = 13.00

; THUMBNAIL_BLOCK_START

;
; THUMBNAIL_BLOCK_END

; THUMBNAIL_BLOCK_START

;
; THUMBNAIL_BLOCK_END

; external perimeters extrusion width = 0.42mm
; perimeters extrusion width = 0.45mm
; infill extrusion width = 0.45mm
; solid infill extrusion width = 0.42mm
; top infill extrusion width = 0.42mm
; first layer extrusion width = 0.50mm

; EXECUTABLE_BLOCK_START
EXCLUDE_OBJECT_DEFINE NAME=pen_holader.STL_id_0_copy_0 CENTER=110,110 POLYGON=[[90.6726,103.505],[94.7113,96.5096],[105.961,90.0144],[114.039,90.0144],[125.289,96.5096],[129.327,103.505],[129.327,116.495],[125.289,123.49],[114.039,129.986],[105.961,129.986],[94.7113,123.49],[90.6726,116.495],[90.6726,103.505]]
M73 P0 R9
;TYPE:Custom
M220 S100 ;Reset Feedrate 
M221 S100 ;Reset Flowrate 
 
M140 S50 ;Set final bed temp  
G28 ;Home 
 
G92 E0 ;Reset Extruder 
G1 Z2.0 F3000 ;Move Z Axis up 
M104 S220 ;Set final nozzle temp  
G1 X-2.0 Y20 Z0.28 F5000.0 ;Move to start position 
M190 S50 ;Wait for bed temp to stabilize  
M109 S220 ;Wait for nozzle temp to stabilize  
G1 X-2.0 Y145.0 Z0.28 F1500.0 E15 ;Draw the first line 
G1 X-1.7 Y145.0 Z0.28 F5000.0 ;Move to side a little 
G1 X-1.7 Y20 Z0.28 F1500.0 E30 ;Draw the second line 
G92 E0 ;Reset Extruder 
G1 E-1.0000 F1800 ;Retract a bit 
M73 P1 R9
M73 P1 R9
G1 Z2.0 F3000 ;Move Z Axis up 
G1 E0.0000 F1800
G90
G21
M83 ; use relative distances for extrusion
; filament start gcode
SET_PRESSURE_ADVANCE ADVANCE=0.044; Override pressure advance value
G1 E-.8 F1800
M106 S0
;LAYER_CHANGE
;Z:0.2
;HEIGHT:0.2
;BEFORE_LAYER_CHANGE
;0.2
G92 E0

;_SET_FAN_SPEED_CHANGING_LAYER
SET_VELOCITY_LIMIT ACCEL=500 ACCEL_TO_DECEL=125
SET_VELOCITY_LIMIT SQUARE_CORNER_VELOCITY=9
; printing object pen_holader.STL id:0 copy 0
EXCLUDE_OBJECT_START NAME=pen_holader.STL_id_0_copy_0
G1 Z.2 F18000
G1 X102.368 Y96.781
G1 E.8 F1800
M73 P2 R9
;TYPE:Outer wall
;WIDTH:0.50002
M73 P2 R9
G1 F3000
G3 X106.119 Y90.322 I1243.459 J717.912 E.26968
;WIDTH:0.487715
G1 X106.513 Y90.304 E.01385
;WIDTH:0.498574
G1 X113.485 Y90.288 E.25095
;WIDTH:0.526319
G1 X113.863 Y90.318 E.01448
G1 X114.079 Y90.629 E.01445
;WIDTH:0.500001
G1 X117.632 Y96.781 E.25651
G1 X124.736 Y96.782 E.2565
;WIDTH:0.526309
G1 X125.113 Y96.813 E.01446
G1 X125.328 Y97.125 E.01445
;WIDTH:0.499757
G1 X128.816 Y103.162 E.25161
;WIDTH:0.525348
G1 X128.974 Y103.505 E.01441
G1 X128.815 Y103.847 E.01438
;WIDTH:0.500021
G1 X125.264 Y110 E.25652
G3 X128.983 Y116.481 I-1204.548 J695.517 E.26982
;WIDTH:0.520944
G2 X128.614 Y117.188 I21.826 J11.855 E.03013
;WIDTH:0.499985
G1 X125.131 Y123.183 E.2503
;WIDTH:0.48777
G1 X124.737 Y123.2 E.01385
;WIDTH:0.500018
G1 X117.632 Y123.219 E.25655
G3 X113.879 Y129.68 I-1243.26 J-717.795 E.26977
;WIDTH:0.497537
G1 X113.584 Y129.701 E.01063
;WIDTH:0.499986
G1 X113.082 Y129.714 E.01814
G1 X106.149 Y129.695 E.25031
;WIDTH:0.487772
G1 X105.936 Y129.363 E.01385
;WIDTH:0.500019
G1 X102.368 Y123.219 E.25655
G3 X94.898 Y123.2 I-.001 J-1435.336 E.2697
;WIDTH:0.488889
G1 X94.685 Y122.869 E.01384
;WIDTH:0.499993
G3 X91.019 Y116.512 I307.95 J-181.875 E.26497
;WIDTH:0.488066
G1 X91.2 Y116.162 E.01386
;WIDTH:0.500021
G1 X94.736 Y110 E.25655
G3 X91.018 Y103.521 I1248.022 J-720.53 E.26971
;WIDTH:0.489718
G1 X91.194 Y103.176 E.01366
;WIDTH:0.499992
G1 X92.097 Y101.581 E.06619
G1 X94.869 Y96.817 E.19899
;WIDTH:0.488015
G1 X95.263 Y96.8 E.01386
;WIDTH:0.50002
G1 X102.328 Y96.781 E.25511
G1 E-.56 F1800
;WIPE_START
G1 F3000
G1 X102.834 Y95.918 E-.24
;WIPE_END
G1 X105.992 Y98.061 Z.4 F18000
G1 X114.014 Y103.505 Z.4
G1 Z.2
G1 E.8 F1800
;WIDTH:0.5
G1 F3000
G1 X117.632 Y97.238 E.26127
G1 X124.736 Y97.239 E.2565
;WIDTH:0.499258
G1 X124.88 Y97.261 E.00527
;WIDTH:0.499757
G1 X128.42 Y103.391 E.25543
G1 X128.472 Y103.528 E.00531
;WIDTH:0.500001
G1 X124.934 Y109.657 E.25552
;WIDTH:0.501748
G1 X124.868 Y109.771 E.00478
;WIDTH:0.5
G1 X117.632 Y109.771 E.26127
G1 X114.034 Y103.539 E.25982
M73 P3 R9
M73 P3 R9
G1 X113.945 Y103.465
G1 X113.618 Y103.276 F18000
G1 F3000
G1 X106.382 Y103.276 E.26127
G1 X102.764 Y97.009 E.26127
G1 X106.321 Y90.86 E.2565
;WIDTH:0.487715
G1 X106.407 Y90.749 E.00493
;WIDTH:0.498574
G1 X113.486 Y90.744 E.25479
;WIDTH:0.499182
G1 X113.631 Y90.766 E.00527
;WIDTH:0.500001
G1 X117.236 Y97.01 E.26032
G1 X113.638 Y103.242 E.25982
G1 X113.618 Y103.356
G1 E-.56 F1800
;WIPE_START
G1 F3000
G1 X112.638 Y103.246 E-.24
;WIPE_END
G1 X109.482 Y105.392 Z.4 F18000
G1 X102.368 Y110.229 Z.4
G1 Z.2
G1 E.8 F1800
;WIDTH:0.5
G1 F3000
G1 X105.986 Y116.495 E.26127
G1 X102.368 Y122.762 E.26127
G1 X95.264 Y122.756 E.2565
;WIDTH:0.488889
G1 X95.124 Y122.737 E.00497
;WIDTH:0.499993
G3 X91.584 Y116.605 I893.754 J-520.062 E.25561
;WIDTH:0.488061
G1 X91.532 Y116.477 E.00489
;WIDTH:0.500022
G1 X95.132 Y110.229 E.26037
G1 X102.328 Y110.229 E.25984
G1 X102.437 Y110.189
G1 X102.764 Y110 F18000
;WIDTH:0.5
G1 F3000
G1 X106.382 Y103.733 E.26127
G1 X113.618 Y103.733 E.26127
G1 X117.236 Y110 E.26127
G1 X113.618 Y116.267 E.26127
G1 X106.382 Y116.267 E.26127
G1 X102.784 Y110.035 E.25982
G1 X102.695 Y109.96
G1 E-.56 F1800
;WIPE_START
G1 F3000
G1 X103.28 Y109.166 E-.24
;WIPE_END
G1 X106.431 Y111.318 Z.4 F18000
G1 X114.014 Y116.495 Z.4
G1 Z.2
G1 E.8 F1800
;WIDTH:0.499999
G1 F3000
G1 X117.632 Y110.229 E.26127
G1 X124.868 Y110.229 E.26127
G1 X128.415 Y116.384 E.2565
M73 P4 R9
;WIDTH:0.520944
M73 P4 R9
G1 X128.461 Y116.499 E.00468
G1 X128.218 Y116.959 E.01966
;WIDTH:0.499985
G1 X124.928 Y122.645 E.23718
;WIDTH:0.487767
G1 X124.843 Y122.756 E.00491
;WIDTH:0.500019
G1 X117.632 Y122.762 E.26036
;WIDTH:0.499999
G1 X114.034 Y116.53 E.25982
G1 X113.618 Y116.724 F18000
;WIDTH:0.500018
G1 F3000
G1 X117.236 Y122.991 E.26128
G1 X113.679 Y129.14 E.25651
;WIDTH:0.521133
G1 X113.603 Y129.237 E.00468
G1 X113.082 Y129.257 E.01966
;WIDTH:0.499986
G1 X106.513 Y129.251 E.23719
;WIDTH:0.48777
G1 X106.375 Y129.232 E.00491
;WIDTH:0.500018
G1 X102.764 Y122.99 E.26036
G1 X106.382 Y116.724 E.26128
G1 X113.578 Y116.724 E.25983
G1 X113.687 Y116.684
G1 E-.56 F1800
;WIPE_START
G1 F3000
G1 X114.082 Y117.587 E-.24
;WIPE_END
G1 X110.908 Y115.469 Z.4 F18000
G1 X102.368 Y109.771 Z.4
G1 Z.2
G1 E.8 F1800
;WIDTH:0.500019
G1 F3000
G1 X95.264 Y109.771 E.25651
;WIDTH:0.501768
G1 X95.132 Y109.771 E.00479
G1 X91.585 Y103.615 E.25752
;WIDTH:0.489732
G1 X91.532 Y103.485 E.00497
;WIDTH:0.499992
G3 X95.071 Y97.355 I772.647 J442.083 E.25555
;WIDTH:0.488015
G1 X95.157 Y97.244 E.00494
;WIDTH:0.500019
G1 X102.368 Y97.238 E.26037
G1 X105.986 Y103.505 E.26128
G1 X102.388 Y109.737 E.25983
G1 X102.368 Y109.851
M73 P4 R8
; stop printing object pen_holader.STL id:0 copy 0
M73 P4 R8
G1 E-.56 F1800
;WIPE_START
G1 F3000
G1 X101.388 Y109.742 E-.24
;WIPE_END
EXCLUDE_OBJECT_END NAME=pen_holader.STL_id_0_copy_0
;TIME_ELAPSED:26.821970

M104 S206.8 ; set nozzle temperature
M106 S255
;LAYER_CHANGE
;Z:0.4
;HEIGHT:0.2
;BEFORE_LAYER_CHANGE
;0.4
G92 E0

;_SET_FAN_SPEED_CHANGING_LAYER
SET_VELOCITY_LIMIT ACCEL=5000 ACCEL_TO_DECEL=1250
SET_VELOCITY_LIMIT SQUARE_CORNER_VELOCITY=12
M140 S50 ; set bed temperature
; printing object pen_holader.STL id:0 copy 0
EXCLUDE_OBJECT_START NAME=pen_holader.STL_id_0_copy_0
G1 Z.4 F18000
G1 X114.026 Y116.495
G1 E.8 F1800
SET_VELOCITY_LIMIT ACCEL=2000 ACCEL_TO_DECEL=500 SQUARE_CORNER_VELOCITY=9
;WIDTH:0.52146
G1 F6191
G1 X117.638 Y110.239 E.27307
G1 X124.862 Y110.239 E.27307
G1 X128.405 Y116.376 E.26784
G1 X128.462 Y116.515 E.00571
G1 X124.931 Y122.631 E.26697
G1 X124.839 Y122.751 E.00571
G1 X117.638 Y122.751 E.27219
G1 X114.046 Y116.53 E.27155
G1 X113.957 Y116.455
SET_VELOCITY_LIMIT ACCEL=5000 ACCEL_TO_DECEL=1250 SQUARE_CORNER_VELOCITY=12
G1 E-.56 F1800
;WIPE_START
G1 F12000
G1 X114.542 Y115.661 E-.24
;WIPE_END
G1 X111.103 Y114.007 Z.6 F18000
G1 X102.776 Y110 Z.6
G1 Z.4
G1 E.8 F1800
SET_VELOCITY_LIMIT ACCEL=2000 ACCEL_TO_DECEL=500 SQUARE_CORNER_VELOCITY=9
G1 F6191
G1 X106.388 Y103.744 E.27307
G1 X113.612 Y103.744 E.27307
G1 X117.155 Y109.88 E.26784
G1 X117.224 Y110 E.00522
G1 X113.612 Y116.256 E.27307
G1 X106.388 Y116.256 E.27307
M73 P5 R8
M73 P5 R8
G1 X102.845 Y110.12 E.26784
G1 X102.796 Y110.035 E.00371
G1 X102.715 Y109.949
SET_VELOCITY_LIMIT ACCEL=5000 ACCEL_TO_DECEL=1250 SQUARE_CORNER_VELOCITY=12
G1 E-.56 F1800
;WIPE_START
G1 F12000
G1 X103.292 Y109.166 E-.24
;WIPE_END
G1 X106.668 Y107.386 Z.6 F18000
G1 X114.026 Y103.505 Z.6
G1 Z.4
G1 E.8 F1800
SET_VELOCITY_LIMIT ACCEL=2000 ACCEL_TO_DECEL=500 SQUARE_CORNER_VELOCITY=9
;WIDTH:0.521459
G1 F6191
G1 X117.638 Y97.249 E.27306
G1 X124.724 Y97.249 E.26784
G1 X124.873 Y97.269 E.00571
G1 X128.405 Y103.385 E.26697
G1 X128.462 Y103.525 E.00571
G1 X124.862 Y109.761 E.27219
G1 X117.638 Y109.761 E.27306
G1 X114.046 Y103.539 E.27155
G1 X113.957 Y103.465
SET_VELOCITY_LIMIT ACCEL=5000 ACCEL_TO_DECEL=1250 SQUARE_CORNER_VELOCITY=12
G1 X113.612 Y103.266 F18000
SET_VELOCITY_LIMIT ACCEL=2000 ACCEL_TO_DECEL=500 SQUARE_CORNER_VELOCITY=9
G1 F6191
G1 X106.526 Y103.266 E.26784
;WIDTH:0.558475
G1 X106.457 Y103.266 E.00281
;WIDTH:0.595489
G1 X106.388 Y103.266 E.00301
;WIDTH:0.521459
G1 X102.776 Y97.01 E.27306
G1 X106.319 Y90.873 E.26784
G1 X106.411 Y90.754 E.00571
G1 X113.474 Y90.754 E.26697
G1 X113.623 Y90.774 E.00571
G1 X117.224 Y97.01 E.27219
G1 X113.632 Y103.231 E.27155
G1 X113.612 Y103.346
SET_VELOCITY_LIMIT ACCEL=5000 ACCEL_TO_DECEL=1250 SQUARE_CORNER_VELOCITY=12
G1 E-.56 F1800
;WIPE_START
G1 F12000
G1 X112.632 Y103.236 E-.24
;WIPE_END
G1 X109.411 Y105.282 Z.6 F18000
G1 X102.362 Y109.761 Z.6
G1 Z.4
G1 E.8 F1800
SET_VELOCITY_LIMIT ACCEL=2000 ACCEL_TO_DECEL=500 SQUARE_CORNER_VELOCITY=9
G1 F6191
G1 X95.138 Y109.761 E.27306
G1 X91.595 Y103.624 E.26784
G1 X91.538 Y103.485 E.00571
G1 X95.069 Y97.369 E.26697
G1 X95.161 Y97.249 E.00571
G1 X102.362 Y97.249 E.27219
G1 X105.974 Y103.505 E.27306
G1 X102.382 Y109.726 E.27155
G1 X102.362 Y109.841
SET_VELOCITY_LIMIT ACCEL=5000 ACCEL_TO_DECEL=1250 SQUARE_CORNER_VELOCITY=12
G1 E-.56 F1800
;WIPE_START
G1 F12000
G1 X101.382 Y109.731 E-.24
;WIPE_END
G1 X101.67 Y105.926 Z.6 F18000
G1 X102.362 Y96.77 Z.6
G1 Z.4
G1 E.8 F1800
SET_VELOCITY_LIMIT ACCEL=2000 ACCEL_TO_DECEL=500 SQUARE_CORNER_VELOCITY=9
;WIDTH:0.52146
G1 F6191
G1 X106.101 Y90.293 E.28272
G1 X106.526 Y90.275 E.01607
G1 X113.867 Y90.275 E.2775
G1 X114.095 Y90.634 E.01607
G1 X117.638 Y96.77 E.26784
G1 X125.117 Y96.77 E.28272
G1 X125.345 Y97.129 E.01607
G1 X129.016 Y103.487 E.2775
G1 X128.819 Y103.864 E.01607
G1 X125.276 Y110 E.26784
G1 X129.016 Y116.477 E.28272
G1 X128.819 Y116.854 E.01607
G1 X125.149 Y123.212 E.2775
G1 X124.724 Y123.23 E.01607
G1 X117.638 Y123.23 E.26784
G1 X113.899 Y129.707 E.28272
G1 X113.474 Y129.725 E.01607
G1 X106.133 Y129.725 E.2775
G1 X105.905 Y129.366 E.01607
G1 X102.362 Y123.23 E.26784
G1 X94.883 Y123.23 E.28272
G1 X94.655 Y122.871 E.01607
G1 X90.984 Y116.513 E.2775
G1 X91.181 Y116.136 E.01607
G1 X94.724 Y110 E.26784
G1 X90.984 Y103.522 E.28276
G1 X91.181 Y103.146 E.01605
G1 X94.851 Y96.788 E.2775
G1 X95.276 Y96.77 E.01607
G1 X102.322 Y96.77 E.26633
G1 X102.437 Y96.798
SET_VELOCITY_LIMIT ACCEL=5000 ACCEL_TO_DECEL=1250 SQUARE_CORNER_VELOCITY=12
G1 E-.56 F1800
;WIPE_START
G1 F12000
G1 X102.826 Y95.907 E-.24
;WIPE_END
G1 X102.702 Y99.721 Z.6 F18000
G1 X102.362 Y110.239 Z.6
G1 Z.4
G1 E.8 F1800
SET_VELOCITY_LIMIT ACCEL=2000 ACCEL_TO_DECEL=500 SQUARE_CORNER_VELOCITY=9
G1 F6191
G1 X105.974 Y116.495 E.27307
G1 X102.362 Y122.751 E.27307
G1 X95.276 Y122.751 E.26784
G1 X95.127 Y122.731 E.00571
G1 X91.595 Y116.615 E.26697
G1 X91.538 Y116.475 E.00571
M73 P6 R8
M73 P6 R8
G1 X95.138 Y110.239 E.27219
G1 X102.322 Y110.239 E.27155
G1 X102.431 Y110.199
SET_VELOCITY_LIMIT ACCEL=5000 ACCEL_TO_DECEL=1250 SQUARE_CORNER_VELOCITY=12
G1 E-.56 F1800
;WIPE_START
G1 F12000
G1 X102.826 Y111.103 E-.24
;WIPE_END
G1 X106.209 Y112.869 Z.6 F18000
G1 X113.612 Y116.734 Z.6
G1 Z.4
G1 E.8 F1800
SET_VELOCITY_LIMIT ACCEL=2000 ACCEL_TO_DECEL=500 SQUARE_CORNER_VELOCITY=9
G1 F6191
G1 X117.224 Y122.99 E.27307
G1 X113.681 Y129.127 E.26784
G1 X113.589 Y129.246 E.00571
G1 X106.526 Y129.246 E.26697
G1 X106.377 Y129.226 E.00571
G1 X102.776 Y122.99 E.27219
G1 X106.388 Y116.734 E.27307
G1 X113.572 Y116.734 E.27155
G1 X113.681 Y116.694
; stop printing object pen_holader.STL id:0 copy 0
G1 E-.56 F1800
;WIPE_START
G1 F12000
G1 X114.076 Y117.598 E-.24
;WIPE_END
EXCLUDE_OBJECT_END NAME=pen_holader.STL_id_0_copy_0
;TIME_ELAPSED:35.240135

M104 S216.2 ; set nozzle temperature
;LAYER_CHANGE
;Z:0.6
;HEIGHT:0.2
;BEFORE_LAYER_CHANGE
;0.6
G92 E0

;_SET_FAN_SPEED_CHANGING_LAYER
; printing object pen_holader.STL id:0 copy 0
SET_VELOCITY_LIMIT ACCEL=5000 ACCEL_TO_DECEL=1250 SQUARE_CORNER_VELOCITY=12
EXCLUDE_OBJECT_START NAME=pen_holader.STL_id_0_copy_0
G1 Z.6 F18000
G1 X114.026 Y116.495
G1 E.8 F1800
SET_VELOCITY_LIMIT ACCEL=2000 ACCEL_TO_DECEL=500 SQUARE_CORNER_VELOCITY=9
G1 F6128
G1 X117.638 Y110.239 E.27307
G1 X124.862 Y110.239 E.27307
G1 X128.405 Y116.376 E.26784
G1 X128.462 Y116.515 E.00571
G1 X124.931 Y122.631 E.26697
G1 X124.839 Y122.751 E.00571
G1 X117.638 Y122.751 E.27219
G1 X114.046 Y116.53 E.27155
G1 X113.957 Y116.455
SET_VELOCITY_LIMIT ACCEL=5000 ACCEL_TO_DECEL=1250 SQUARE_CORNER_VELOCITY=12
G1 E-.56 F1800
;WIPE_START
G1 F12000
G1 X114.542 Y115.661 E-.24
;WIPE_END
G1 X111.103 Y114.007 Z.8 F18000
G1 X102.776 Y110 Z.8
G1 Z.6
G1 E.8 F1800
SET_VELOCITY_LIMIT ACCEL=2000 ACCEL_TO_DECEL=500 SQUARE_CORNER_VELOCITY=9
G1 F6128
G1 X106.388 Y103.744 E.27307
G1 X113.612 Y103.744 E.27307
G1 X117.155 Y109.88 E.26784
G1 X117.224 Y110 E.00522
G1 X113.612 Y116.256 E.27307
G1 X106.388 Y116.256 E.27307
G1 X102.845 Y110.12 E.26784
G1 X102.796 Y110.035 E.00371
G1 X102.715 Y109.949
SET_VELOCITY_LIMIT ACCEL=5000 ACCEL_TO_DECEL=1250 SQUARE_CORNER_VELOCITY=12
G1 E-.56 F1800
;WIPE_START
G1 F12000
G1 X103.292 Y109.166 E-.24
;WIPE_END
G1 X106.668 Y107.386 Z.8 F18000
G1 X114.026 Y103.505 Z.8
G1 Z.6
G1 E.8 F1800
SET_VELOCITY_LIMIT ACCEL=2000 ACCEL_TO_DECEL=500 SQUARE_CORNER_VELOCITY=9
;WIDTH:0.521459
G1 F6128
G1 X117.638 Y97.249 E.27306
G1 X124.724 Y97.249 E.26784
G1 X124.873 Y97.269 E.00571
G1 X128.405 Y103.385 E.26697
G1 X128.462 Y103.525 E.00571
G1 X124.862 Y109.761 E.27219
G1 X117.638 Y109.761 E.27306
G1 X114.046 Y103.539 E.27155
G1 X113.957 Y103.465
SET_VELOCITY_LIMIT ACCEL=5000 ACCEL_TO_DECEL=1250 SQUARE_CORNER_VELOCITY=12
G1 X113.612 Y103.266 F18000
SET_VELOCITY_LIMIT ACCEL=2000 ACCEL_TO_DECEL=500 SQUARE_CORNER_VELOCITY=9
G1 F6128
G1 X106.526 Y103.266 E.26784
;WIDTH:0.558475
G1 X106.457 Y103.266 E.00281
;WIDTH:0.595489
G1 X106.388 Y103.266 E.00301
;WIDTH:0.521459
G1 X102.776 Y97.01 E.27306
G1 X106.319 Y90.873 E.26784
G1 X106.411 Y90.754 E.00571
G1 X113.474 Y90.754 E.26697
G1 X113.623 Y90.774 E.00571
G1 X117.224 Y97.01 E.27219
G1 X113.632 Y103.231 E.27155
G1 X113.612 Y103.346
SET_VELOCITY_LIMIT ACCEL=5000 ACCEL_TO_DECEL=1250 SQUARE_CORNER_VELOCITY=12
G1 E-.56 F1800
;WIPE_START
G1 F12000
G1 X112.632 Y103.236 E-.24
;WIPE_END
G1 X109.411 Y105.282 Z.8 F18000
G1 X102.362 Y109.761 Z.8
G1 Z.6
G1 E.8 F1800
SET_VELOCITY_LIMIT ACCEL=2000 ACCEL_TO_DECEL=500 SQUARE_CORNER_VELOCITY=9
G1 F6128
G1 X95.138 Y109.761 E.27306
G1 X91.595 Y103.624 E.26784
G1 X91.538 Y103.485 E.00571
G1 X95.069 Y97.369 E.26697
G1 X95.161 Y97.249 E.00571
G1 X102.362 Y97.249 E.27219
G1 X105.974 Y103.505 E.27306
G1 X102.382 Y109.726 E.27155
G1 X102.362 Y109.841
SET_VELOCITY_LIMIT ACCEL=5000 ACCEL_TO_DECEL=1250 SQUARE_CORNER_VELOCITY=12
G1 E-.56 F1800
;WIPE_START
G1 F12000
G1 X101.382 Y109.731 E-.24
;WIPE_END
G1 X101.67 Y105.926 Z.8 F18000
G1 X102.362 Y96.77 Z.8
G1 Z.6
M73 P7 R8
M73 P7 R8
G1 E.8 F1800
SET_VELOCITY_LIMIT ACCEL=2000 ACCEL_TO_DECEL=500 SQUARE_CORNER_VELOCITY=9
;WIDTH:0.52146
G1 F6128
G1 X106.101 Y90.293 E.28272
G1 X106.526 Y90.275 E.01607
G1 X113.867 Y90.275 E.2775
G1 X114.095 Y90.634 E.01607
G1 X117.638 Y96.77 E.26784
G1 X125.117 Y96.77 E.28272
G1 X125.345 Y97.129 E.01607
G1 X129.016 Y103.487 E.2775
