; HEADER_BLOCK_START
; generated by Creality_Print V6.0.5.1840 on 2025-03-21 at 01:02:47
; total layer number: 35
; filament_density: 1.24
; filament_diameter: 1.75
; max_z_height: 7.00
; HEADER_BLOCK_END

; MINX = 51.02
; MINY = 51.00
; MINZ = 0.00
; MAXX = 168.98
; MAXY = 169.00
; MAXZ = 7.00

; THUMBNAIL_BLOCK_START

;
; THUMBNAIL_BLOCK_END

; THUMBNAIL_BLOCK_START

;
; THUMBNAIL_BLOCK_END

; external perimeters extrusion width = 0.42mm
; perimeters extrusion width = 0.45mm
; infill extrusion width = 0.45mm
; solid infill extrusion width = 0.42mm
; top infill extrusion width = 0.42mm
; first layer extrusion width = 0.50mm

; EXECUTABLE_BLOCK_START
EXCLUDE_OBJECT_DEFINE NAME=task7.STL_id_0_copy_0 CENTER=110,110 POLYGON=[[51.0196,111.519],[51.176,105.447],[51.9559,99.4224],[53.3512,93.5103],[55.3469,87.7731],[57.922,82.2714],[61.0491,77.0636],[64.6951,72.205],[68.8213,67.747],[73.384,63.7369],[78.3349,60.2172],[83.6215,57.2253],[89.1876,54.7927],[94.9744,52.9454],[100.92,51.7028],[106.963,51.0782],[110,51],[113.037,51.0782],[119.08,51.7028],[125.026,52.9454],[130.812,54.7927],[136.379,57.2253],[141.665,60.2172],[146.616,63.7369],[151.179,67.747],[155.305,72.205],[158.951,77.0636],[162.078,82.2714],[164.653,87.7731],[166.649,93.5103],[168.044,99.4224],[168.824,105.447],[168.98,111.519],[168.512,117.576],[167.423,123.552],[165.725,129.384],[163.436,135.011],[160.582,140.373],[157.191,145.413],[153.299,150.077],[148.949,154.317],[144.186,158.087],[139.06,161.347],[133.627,164.063],[127.943,166.205],[122.069,167.752],[116.066,168.687],[110,169],[103.934,168.687],[97.9314,167.752],[92.0572,166.205],[86.3732,164.063],[80.9397,161.347],[75.8142,158.087],[71.051,154.317],[66.7008,150.077],[62.8095,145.413],[59.4184,140.373],[56.5636,135.011],[54.2751,129.384],[52.5774,123.552],[51.4884,117.576],[51.0196,111.519]]
M73 P0 R57
;TYPE:Custom
M220 S100 ;Reset Feedrate 
M221 S100 ;Reset Flowrate 
 
M140 S50 ;Set final bed temp  
G28 ;Home 
 
G92 E0 ;Reset Extruder 
G1 Z2.0 F3000 ;Move Z Axis up 
M104 S220 ;Set final nozzle temp  
G1 X-2.0 Y20 Z0.28 F5000.0 ;Move to start position 
M190 S50 ;Wait for bed temp to stabilize  
M109 S220 ;Wait for nozzle temp to stabilize  
G1 X-2.0 Y145.0 Z0.28 F1500.0 E15 ;Draw the first line 
M73 P0 R56
M73 P0 R56
G1 X-1.7 Y145.0 Z0.28 F5000.0 ;Move to side a little 
G1 X-1.7 Y20 Z0.28 F1500.0 E30 ;Draw the second line 
G92 E0 ;Reset Extruder 
G1 E-1.0000 F1800 ;Retract a bit 
G1 Z2.0 F3000 ;Move Z Axis up 
G1 E0.0000 F1800
G90
G21
M83 ; use relative distances for extrusion
; filament start gcode
SET_PRESSURE_ADVANCE ADVANCE=0.044; Override pressure advance value
G1 E-.8 F1800
M106 S0
;LAYER_CHANGE
;Z:0.2
;HEIGHT:0.2
;BEFORE_LAYER_CHANGE
;0.2
G92 E0

;_SET_FAN_SPEED_CHANGING_LAYER
SET_VELOCITY_LIMIT ACCEL=500 ACCEL_TO_DECEL=125
SET_VELOCITY_LIMIT SQUARE_CORNER_VELOCITY=9
; printing object task7.STL id:0 copy 0
EXCLUDE_OBJECT_START NAME=task7.STL_id_0_copy_0
G1 Z.2 F18000
G1 X119.437 Y52.653
G1 E.8 F1800
;TYPE:Inner wall
;WIDTH:0.499999
G1 F3000
G1 X124.807 Y53.775 E.19808
G1 X130.51 Y55.596 E.21613
G1 X135.995 Y57.993 E.21614
G1 X141.204 Y60.941 E.21614
G1 X146.083 Y64.41 E.21614
G1 X150.58 Y68.362 E.21613
G1 X154.646 Y72.755 E.21614
G1 X158.239 Y77.543 E.21613
G1 X161.321 Y82.675 E.21614
G1 X163.858 Y88.096 E.21614
G1 X165.825 Y93.75 E.21613
G1 X167.2 Y99.576 E.21614
G1 X167.925 Y105.176 E.20386
G1 X167.974 Y105.737 E.02033
G1 X168.123 Y111.497 E.20806
G1 X167.661 Y117.465 E.21614
G1 X166.587 Y123.354 E.21613
G1 X164.914 Y129.102 E.21613
G1 X162.659 Y134.647 E.21613
G1 X159.846 Y139.931 E.21614
G1 X156.504 Y144.898 E.21613
G1 X152.669 Y149.494 E.21614
G1 X148.439 Y153.617 E.2133
G1 X143.688 Y157.387 E.21897
G1 X138.638 Y160.6 E.21612
G1 X133.283 Y163.276 E.21613
G1 X127.682 Y165.388 E.21614
G1 X121.893 Y166.912 E.21613
G1 X115.978 Y167.834 E.21614
G1 X110 Y168.142 E.21613
G1 X104.022 Y167.834 E.21613
G1 X98.107 Y166.912 E.21614
G1 X92.318 Y165.388 E.21613
G1 X86.717 Y163.276 E.21614
G1 X81.362 Y160.6 E.21613
G1 X76.311 Y157.387 E.21613
G1 X71.618 Y153.672 E.21614
G1 X67.331 Y149.494 E.21613
G1 X63.496 Y144.898 E.21614
G1 X60.154 Y139.931 E.21613
G1 X57.341 Y134.647 E.21614
G1 X55.086 Y129.102 E.21613
G1 X53.413 Y123.354 E.21614
G1 X52.339 Y117.465 E.21613
G1 X51.877 Y111.497 E.21614
G1 X52.032 Y105.513 E.21613
G1 X52.8 Y99.576 E.21614
G1 X54.175 Y93.75 E.21614
G1 X56.142 Y88.096 E.21613
G1 X58.679 Y82.675 E.21614
G1 X61.761 Y77.543 E.21614
G1 X65.354 Y72.755 E.21613
G1 X69.42 Y68.362 E.21614
G1 X73.917 Y64.41 E.21613
G1 X78.796 Y60.941 E.21614
G1 X84.005 Y57.993 E.21614
G1 X89.49 Y55.596 E.21614
G1 X95.193 Y53.775 E.21613
G1 X101.053 Y52.551 E.21614
G1 X107.015 Y51.934 E.21643
G1 X110.536 Y51.871 E.12714
G1 X112.982 Y51.934 E.08836
G1 X118.947 Y52.551 E.21653
G1 X119.398 Y52.645 E.01661
G1 X119.018 Y52.099 F18000
;TYPE:Outer wall
G1 F3000
G1 X124.924 Y53.333 E.21784
G1 X130.671 Y55.167 E.21784
G1 X136.199 Y57.584 E.21784
G1 X141.45 Y60.555 E.21784
G1 X146.367 Y64.051 E.21784
G1 X150.899 Y68.034 E.21784
G1 X154.997 Y72.462 E.21784
G1 X158.619 Y77.287 E.21784
G1 X161.725 Y82.46 E.21784
G1 X164.282 Y87.924 E.21784
G1 X166.264 Y93.622 E.21784
G1 X167.65 Y99.494 E.21784
G1 X168.378 Y105.117 E.20471
G1 X168.431 Y105.725 E.02203
G1 X168.58 Y111.509 E.20891
G1 X168.114 Y117.524 E.21784
G1 X167.033 Y123.46 E.21784
G1 X165.347 Y129.252 E.21784
G1 X163.074 Y134.841 E.21784
G1 X160.238 Y140.167 E.21784
G1 X156.87 Y145.172 E.21784
G1 X153.005 Y149.805 E.21784
G1 X148.741 Y153.961 E.21499
G1 X143.954 Y157.76 E.22068
G1 X138.863 Y160.998 E.21783
G1 X133.466 Y163.696 E.21784
G1 X127.821 Y165.824 E.21784
G1 X121.987 Y167.36 E.21784
G1 X116.025 Y168.289 E.21784
G1 X110 Y168.599 E.21784
G1 X103.975 Y168.289 E.21784
G1 X98.013 Y167.36 E.21784
G1 X92.179 Y165.824 E.21784
G1 X86.534 Y163.696 E.21784
G1 X81.137 Y160.998 E.21784
G1 X76.046 Y157.76 E.21784
G1 X71.315 Y154.016 E.21784
G1 X66.995 Y149.805 E.21784
G1 X63.13 Y145.172 E.21784
G1 X59.762 Y140.167 E.21784
G1 X56.926 Y134.841 E.21784
G1 X54.653 Y129.252 E.21784
G1 X52.967 Y123.46 E.21784
G1 X51.886 Y117.524 E.21784
G1 X51.42 Y111.509 E.21784
G1 X51.575 Y105.478 E.21784
G1 X52.35 Y99.494 E.21784
G1 X53.736 Y93.622 E.21784
G1 X55.718 Y87.924 E.21784
G1 X58.275 Y82.46 E.21784
G1 X61.381 Y77.287 E.21784
G1 X65.003 Y72.462 E.21784
G1 X69.101 Y68.034 E.21784
G1 X73.633 Y64.051 E.21784
G1 X78.55 Y60.555 E.21784
G1 X83.801 Y57.584 E.21784
G1 X89.329 Y55.167 E.21784
G1 X95.076 Y53.333 E.21784
G1 X100.982 Y52.099 E.21784
G1 X106.987 Y51.478 E.21799
G1 X110.538 Y51.414 E.1282
G1 X113.011 Y51.478 E.08935
G1 X118.978 Y52.094 E.21658
G1 X119.046 Y52.173
G1 E-.56 F1800
;WIPE_START
G1 F3000
G1 X119.957 Y52.298 E-.24
;WIPE_END
G1 X120.328 Y56.097 Z.4 F18000
G1 X126.032 Y114.544 Z.4
G1 Z.2
G1 E.8 F1800
;TYPE:Inner wall
G1 F3000
G1 X126.032 Y114.529 E.00053
G1 X126.549 Y111.739 E.10244
G1 X126.617 Y109.129 E.09428
G1 X126.277 Y106.54 E.09428
G1 X125.535 Y104.037 E.09428
G1 X124.411 Y101.68 E.09428
G1 X122.932 Y99.528 E.09428
G1 X121.135 Y97.634 E.09428
G1 X119.063 Y96.044 E.09428
G1 X116.768 Y94.798 E.09428
G1 X114.094 Y93.851 E.10244
G1 X113.9 Y93.745 E.00798
G1 X113.83 Y93.561 E.00712
;WIDTH:0.455742
G1 X113.76 Y93.376 E.00643
;WIDTH:0.411485
G1 X113.69 Y93.192 E.00574
;WIDTH:0.406534
G1 X113.85 Y92.513 E.02005
;WIDTH:0.44584
G1 X114.011 Y91.833 E.02221
;WIDTH:0.485147
G1 X114.171 Y91.154 E.02438
;WIDTH:0.524453
G3 X114.697 Y89.173 I24.018 J5.316 E.078
;WIDTH:0.492262
G1 X115.063 Y87.871 E.048
;WIDTH:0.499999
G1 X115.486 Y87.394 E.02303
G1 X115.935 Y87.397 E.01619
G1 X119.45 Y88.642 E.13466
G3 X122.675 Y90.383 I-106.541 J201.163 E.13233
G3 X125.631 Y92.64 I-141.821 J188.759 E.13427
G1 X128.154 Y95.299 E.13235
G1 X130.2 Y98.276 E.1304
G3 X131.785 Y101.58 I-162.556 J80.028 E.13233
G3 X132.834 Y105.092 I-159.212 J49.472 E.13233
G3 X133.328 Y108.777 I-135.841 J20.073 E.13428
G1 X133.232 Y112.442 E.13235
G1 X132.542 Y116.162 E.13661
G1 X132.321 Y116.552 E.01619
G1 X131.82 Y116.712 E.01897
;WIDTH:0.492263
G1 X130.448 Y116.361 E.05028
;WIDTH:0.524455
G3 X128.443 Y115.821 I5.473 J-24.308 E.079
;WIDTH:0.485149
G1 X127.811 Y115.632 E.02306
;WIDTH:0.445842
G1 X127.178 Y115.442 E.02101
;WIDTH:0.406535
G1 X126.546 Y115.252 E.01896
;WIDTH:0.367228
G1 X126.477 Y115.228 E.00188
;WIDTH:0.409643
G1 X126.327 Y115.068 E.00633
;WIDTH:0.454821
G1 X126.177 Y114.909 E.00711
;WIDTH:0.499999
G1 X126.027 Y114.75 E.00789
G1 X126.031 Y114.584 E.00601
G1 E-.56 F1800
;WIPE_START
G1 F3000
G1 X126.032 Y114.529 E-.01311
G1 X126.204 Y113.599 E-.22689
;WIPE_END
G1 X122.394 Y113.817 Z.4 F18000
G1 X87.394 Y115.817 Z.4
G1 Z.2
G1 E.8 F1800
G1 F3000
G1 X86.778 Y112.495 E.12201
G3 X86.674 Y108.831 I227.452 J-8.313 E.13233
G3 X87.151 Y105.143 I234.419 J28.446 E.13427
G1 X88.192 Y101.629 E.13235
G1 X89.747 Y98.369 E.1304
G3 X91.816 Y95.344 I150.556 J100.745 E.13233
G3 X94.332 Y92.679 I122.464 J113.158 E.13233
G3 X97.277 Y90.409 I85.306 J107.606 E.13428
G1 X100.499 Y88.66 E.13235
G1 X104.065 Y87.397 E.13661
G1 X104.514 Y87.394 E.01619
G1 X104.929 Y87.842 E.02205
;WIDTH:0.492264
G1 X105.299 Y89.158 E.04854
;WIDTH:0.524454
G3 X105.82 Y91.117 I-23.23 J7.232 E.07714
;WIDTH:0.485147
G1 X105.972 Y91.76 E.02306
;WIDTH:0.44584
G1 X106.124 Y92.402 E.02101
;WIDTH:0.406533
G1 X106.275 Y93.045 E.01896
;WIDTH:0.370362
G1 X106.298 Y93.224 E.00468
;WIDTH:0.413575
G1 X106.232 Y93.398 E.00544
;WIDTH:0.456787
G1 X106.166 Y93.571 E.00607
;WIDTH:0.499999
G1 X106.1 Y93.745 E.0067
G1 X105.906 Y93.851 E.00798
G1 X103.232 Y94.798 E.10244
G1 X100.937 Y96.044 E.09428
G1 X98.865 Y97.634 E.09428
G1 X97.068 Y99.528 E.09428
G1 X95.589 Y101.68 E.09428
G1 X94.465 Y104.037 E.09428
G1 X93.723 Y106.54 E.09428
G1 X93.383 Y109.129 E.09428
G1 X93.451 Y111.739 E.09428
G1 X93.968 Y114.529 E.10244
G1 X93.973 Y114.75 E.00798
G1 X93.848 Y114.903 E.00712
;WIDTH:0.455742
G1 X93.723 Y115.056 E.00643
;WIDTH:0.411485
G1 X93.599 Y115.209 E.00574
;WIDTH:0.406535
G1 X92.93 Y115.409 E.02005
;WIDTH:0.445842
G1 X92.262 Y115.61 E.02221
;WIDTH:0.485149
G1 X91.593 Y115.811 E.02438
;WIDTH:0.524455
G3 X89.615 Y116.346 I-7.405 J-23.458 E.078
;WIDTH:0.492264
G1 X88.304 Y116.68 E.048
;WIDTH:0.499999
G1 X87.679 Y116.552 E.02303
G1 X87.458 Y116.162 E.01619
G1 X87.401 Y115.857 E.01121
G1 E-.56 F1800
;WIPE_START
G1 F3000
G1 X87.219 Y114.873 E-.24
;WIPE_END
G1 X90.079 Y117.4 Z.4 F18000
G1 X107.96 Y133.196 Z.4
G1 Z.2
G1 E.8 F1800
G1 F3000
G1 X106.4 Y133.076 E.05652
G3 X102.781 Y132.216 I32.259 J-143.764 E.13428
G1 X99.395 Y130.814 E.13235
G1 X96.316 Y128.927 E.1304
G3 X93.392 Y126.441 I82.377 J-99.844 E.13854
G1 X93.164 Y126.046 E.01649
G1 X93.267 Y125.56 E.01792
;WIDTH:0.4894
G1 X93.852 Y124.946 E.02993
;WIDTH:0.526981
G1 X94.438 Y124.331 E.03245
G1 X95.28 Y123.516 E.04483
;WIDTH:0.489823
G1 X96.122 Y122.7 E.04139
;WIDTH:0.452665
G1 X96.964 Y121.884 E.03795
;WIDTH:0.415506
G1 X97.285 Y121.614 E.01235
;WIDTH:0.416059
G1 X97.405 Y121.561 E.00387
;WIDTH:0.458029
G1 X97.525 Y121.509 E.0043
;WIDTH:0.499999
G1 X97.646 Y121.456 E.00474
G1 X98.062 Y121.62 E.01614
G1 X100.219 Y123.462 E.10244
G1 X102.445 Y124.827 E.09428
G1 X104.858 Y125.826 E.09428
G1 X107.397 Y126.435 E.09428
G1 X110 Y126.64 E.09428
G1 X112.603 Y126.435 E.09428
G1 X115.142 Y125.826 E.09428
G1 X117.555 Y124.827 E.09428
G1 X119.781 Y123.462 E.09428
G1 X121.938 Y121.62 E.10244
G1 X122.355 Y121.462 E.01608
M73 P1 R56
;WIDTH:0.488299
M73 P1 R56
G1 X122.475 Y121.513 E.00459
;WIDTH:0.45023
G1 X122.595 Y121.563 E.0042
;WIDTH:0.41216
G1 X122.715 Y121.614 E.0038
;WIDTH:0.415507
G1 X123.036 Y121.884 E.01235
;WIDTH:0.452665
G1 X123.878 Y122.7 E.03795
;WIDTH:0.489823
G1 X124.72 Y123.516 E.04139
;WIDTH:0.526981
G3 X126.096 Y124.892 I-16.448 J17.82 E.07443
;WIDTH:0.4894
G1 X126.63 Y125.452 E.0273
;WIDTH:0.456324
G1 X126.74 Y125.593 E.00584
;WIDTH:0.499999
G1 X126.836 Y126.046 E.01671
G1 X126.608 Y126.441 E.01649
G1 X123.73 Y128.898 E.13661
G1 X120.605 Y130.814 E.13235
G1 X117.219 Y132.216 E.13235
G1 X113.654 Y133.072 E.13235
G1 X110.054 Y133.355 E.1304
G1 X108 Y133.199 E.07436
G1 E-.56 F1800
;WIPE_START
G1 F3000
G1 X107.003 Y133.122 E-.24
;WIPE_END
G1 X109.308 Y130.081 Z.4 F18000
G1 X149.329 Y77.269 Z.4
G1 Z.2
G1 E.8 F1800
G1 F3000
G1 X149.269 Y77.349 E.00362
G1 X149.027 Y77.504 E.01038
G1 X148.73 Y77.545 E.01083
G1 X148.441 Y77.456 E.0109
G1 X145.807 Y75.762 E.11308
G1 X142.42 Y74.312 E.13302
G1 X138.84 Y73.443 E.13302
G1 X135.165 Y73.181 E.13302
G1 X131.497 Y73.531 E.13302
G1 X127.938 Y74.484 E.13302
G1 X124.587 Y76.015 E.13302
G1 X121.536 Y78.08 E.13302
G1 X118.87 Y80.622 E.13302
G1 X116.662 Y83.572 E.13302
G1 X114.974 Y86.846 E.13302
G1 X114.673 Y87.721 E.03338
;WIDTH:0.492262
G1 X114.269 Y89.038 E.04892
;WIDTH:0.524453
G1 X113.865 Y90.356 E.05242
G1 X113.75 Y91.012 E.02533
;WIDTH:0.485147
G1 X113.636 Y91.668 E.02326
;WIDTH:0.44584
G1 X113.522 Y92.324 E.02119
;WIDTH:0.406534
G1 X113.407 Y92.98 E.01913
;WIDTH:0.411485
G1 X113.381 Y93.327 E.01015
;WIDTH:0.455742
G1 X113.354 Y93.675 E.01137
;WIDTH:0.499999
G1 X113.328 Y94.022 E.01258
G1 X113.415 Y97.686 E.13231
G1 X114.112 Y101.303 E.13302
G1 X115.4 Y104.755 E.13302
G1 X117.242 Y107.946 E.13302
G1 X119.588 Y110.787 E.13302
G1 X122.372 Y113.2 E.13302
G1 X125.518 Y115.117 E.13302
G1 X125.802 Y115.255 E.0114
;WIDTH:0.455742
G1 X126.085 Y115.394 E.01029
;WIDTH:0.411485
G1 X126.369 Y115.532 E.00919
;WIDTH:0.406535
G1 X127.013 Y115.768 E.0197
;WIDTH:0.445842
G1 X127.657 Y116.004 E.02182
;WIDTH:0.485149
G1 X128.301 Y116.239 E.02395
;WIDTH:0.524455
G1 X128.945 Y116.475 E.02608
G1 X130.271 Y116.78 E.05177
;WIDTH:0.492263
G1 X131.598 Y117.085 E.04831
;WIDTH:0.499999
G1 X132.505 Y117.262 E.03338
G2 X136.218 Y117.445 I17.109 J-310.108 E.13425
G1 X139.877 Y117.007 E.13302
G1 X143.412 Y115.969 E.13302
G1 X146.726 Y114.36 E.13302
G1 X149.727 Y112.223 E.13302
G1 X152.332 Y109.617 E.13302
G1 X154.469 Y106.616 E.13302
G1 X156.079 Y103.302 E.13302
G1 X157.117 Y99.767 E.13302
G1 X157.554 Y96.109 E.13302
G1 X157.406 Y93.012 E.11196
G1 X157.456 Y92.722 E.0106
G1 X157.613 Y92.488 E.01017
G1 X157.831 Y92.345 E.00942
G1 X158.434 Y92.254 E.02204
G1 X158.75 Y92.295 E.01149
G1 X158.973 Y92.434 E.0095
G1 X159.167 Y92.732 E.01283
G1 X159.775 Y96.473 E.13685
G1 X159.865 Y100.882 E.15923
G1 X159.337 Y105.261 E.15923
G1 X158.2 Y109.522 E.15924
G1 X156.478 Y113.582 E.15923
G1 X154.204 Y117.361 E.15923
G1 X151.423 Y120.784 E.15924
G1 X148.19 Y123.783 E.15923
G1 X144.569 Y126.301 E.15923
G1 X141.189 Y128.004 E.13668
G1 X141.402 Y131.824 E.13814
G1 X141.03 Y136.216 E.15913
G1 X140.057 Y140.465 E.15739
G3 X138.488 Y144.584 I-314.112 J-117.312 E.15912
G3 X136.358 Y148.442 I-233.023 J-126.135 E.15912
G3 X133.68 Y152.002 I-263.382 J-195.337 E.16086
G1 X130.558 Y155.114 E.15913
G1 X127.032 Y157.758 E.15913
G1 X123.171 Y159.883 E.15913
G1 X119.642 Y161.221 E.13627
G1 X119.334 Y161.263 E.01121
G1 X119.054 Y161.173 E.01062
G1 X118.861 Y161.005 E.00925
G1 X118.603 Y160.478 E.02119
G1 X118.544 Y160.222 E.00946
G1 X118.599 Y159.93 E.01075
G1 X118.805 Y159.646 E.01264
G1 X121.681 Y158.17 E.11672
G1 X124.579 Y156.024 E.1302
G1 X127.09 Y153.437 E.1302
G1 X129.148 Y150.476 E.1302
G1 X130.699 Y147.22 E.1302
G1 X131.7 Y143.756 E.1302
G1 X132.125 Y140.175 E.1302
G1 X131.964 Y136.573 E.13021
G1 X131.235 Y133.1 E.1281
G1 X129.96 Y129.788 E.12813
G1 X128.172 Y126.723 E.12813
G3 X126.996 Y125.251 I21.514 J-18.402 E.06806
;WIDTH:0.4894
G1 X126.451 Y124.621 E.02936
;WIDTH:0.526981
G1 X125.907 Y123.991 E.03183
G1 X125.035 Y123.198 E.04506
;WIDTH:0.489823
G1 X124.163 Y122.405 E.0416
;WIDTH:0.452665
G1 X123.291 Y121.613 E.03814
;WIDTH:0.415507
G1 X122.774 Y121.263 E.01838
;WIDTH:0.416142
G1 X122.664 Y121.216 E.00352
;WIDTH:0.452221
G1 X122.555 Y121.168 E.00386
;WIDTH:0.488299
G1 X122.445 Y121.12 E.0042
;WIDTH:0.499999
G3 X120.251 Y119.747 I77.355 J-126.011 E.09347
G1 X116.984 Y118.361 E.12813
G1 X113.537 Y117.515 E.12813
G1 X110 Y117.231 E.12813
G1 X106.463 Y117.515 E.12813
G1 X103.016 Y118.361 E.12813
G1 X99.749 Y119.747 E.12813
G1 X97.558 Y121.125 E.09347
G1 X97.37 Y121.22 E.0076
;WIDTH:0.46002
G1 X97.182 Y121.315 E.00693
