; HEADER_BLOCK_START
; generated by Creality_Print V6.0.4.1794 on 2025-03-11 at 11:14:09
; total layer number: 27
; filament_density: 1.24
; filament_diameter: 1.75
; max_z_height: 5.40
; HEADER_BLOCK_END

; MINX = 84.05
; MINY = 77.61
; MINZ = 0.00
; MAXX = 137.11
; MAXY = 129.57
; MAXZ = 5.38

; THUMBNAIL_BLOCK_START

;
; THUMBNAIL_BLOCK_END

; THUMBNAIL_BLOCK_START

;
; THUMBNAIL_BLOCK_END

; external perimeters extrusion width = 0.42mm
; perimeters extrusion width = 0.45mm
; infill extrusion width = 0.45mm
; solid infill extrusion width = 0.42mm
; top infill extrusion width = 0.42mm
; first layer extrusion width = 0.50mm

; EXECUTABLE_BLOCK_START
EXCLUDE_OBJECT_DEFINE NAME=task2.STL_id_0_copy_0 CENTER=110.581,103.593 POLYGON=[[84.0531,95.0934],[109.463,77.6108],[137.108,96.456],[127.728,128.572],[94.2857,129.575],[84.0531,95.0934]]
M73 P0 R5
;TYPE:Custom
M220 S100 ;Reset Feedrate 
M221 S100 ;Reset Flowrate 
 
M140 S50 ;Set final bed temp  
G28 ;Home 
 
G92 E0 ;Reset Extruder 
G1 Z2.0 F3000 ;Move Z Axis up 
M104 S220 ;Set final nozzle temp  
G1 X-2.0 Y20 Z0.28 F5000.0 ;Move to start position 
M190 S50 ;Wait for bed temp to stabilize  
M109 S220 ;Wait for nozzle temp to stabilize  
G1 X-2.0 Y145.0 Z0.28 F1500.0 E15 ;Draw the first line 
G1 X-1.7 Y145.0 Z0.28 F5000.0 ;Move to side a little 
M73 P1 R5
M73 P1 R5
G1 X-1.7 Y20 Z0.28 F1500.0 E30 ;Draw the second line 
G92 E0 ;Reset Extruder 
G1 E-1.0000 F1800 ;Retract a bit 
M73 P3 R5
M73 P3 R5
G1 Z2.0 F3000 ;Move Z Axis up 
G1 E0.0000 F1800
G90
G21
M83 ; use relative distances for extrusion
; filament start gcode
SET_PRESSURE_ADVANCE ADVANCE=0.044; Override pressure advance value
G1 E-.8 F1800
M106 S0
;LAYER_CHANGE
;Z:0.2
;HEIGHT:0.2
;BEFORE_LAYER_CHANGE
;0.2
G92 E0

;_SET_FAN_SPEED_CHANGING_LAYER
SET_VELOCITY_LIMIT ACCEL=500 ACCEL_TO_DECEL=125
SET_VELOCITY_LIMIT SQUARE_CORNER_VELOCITY=9
; printing object task2.STL id:0 copy 0
EXCLUDE_OBJECT_START NAME=task2.STL_id_0_copy_0
G1 Z.2 F18000
G1 X116.254 Y108.179
G1 E.8 F1800
;TYPE:Inner wall
;WIDTH:0.499999
G1 F3000
G1 X116.282 Y108.294 E.00426
G1 X124.823 Y124.816 E.67155
G1 X110.908 Y112.33 E.67504
G1 X110.617 Y112.226 E.01116
G1 X110.31 Y112.253 E.01109
G1 X110.034 Y112.423 E.01172
G1 X96.96 Y125.652 E.67155
G1 X104.487 Y108.666 E.67081
G1 X104.544 Y108.343 E.01184
M73 P4 R5
M73 P4 R5
G1 X104.465 Y108.066 E.01041
G1 X104.246 Y107.822 E.01184
G1 X88.436 Y97.045 E.69086
G1 X106.094 Y101.363 E.65634
G1 X106.458 Y101.262 E.01366
G1 X106.677 Y101.067 E.01057
G1 X106.8 Y100.767 E.01171
G1 X109.605 Y82.357 E.6724
G1 X113.525 Y100.639 E.67511
G1 X113.7 Y100.894 E.01115
G1 X113.961 Y101.05 E.01098
G1 X114.286 Y101.075 E.01177
G1 X132.639 Y98.058 E.67155
G1 X116.464 Y107.434 E.67504
G1 X116.275 Y107.679 E.01115
G1 X116.206 Y107.977 E.01105
G1 X116.245 Y108.14 E.00607
G1 X116.777 Y107.781 F18000
;TYPE:Outer wall
G1 F3000
G1 X116.672 Y107.914 E.00612
G1 X116.688 Y108.084 E.00614
G1 X125.343 Y124.825 E.68047
;WIDTH:0.537147
G1 X125.828 Y125.712 E.03945
M73 P5 R5
M73 P5 R5
G1 X126.113 Y126.109 E.01908
;WIDTH:0.502313
G1 X126.398 Y126.507 E.01774
;WIDTH:0.467479
G1 X126.935 Y127.546 E.03924
G1 X126.062 Y126.763 E.03933
;WIDTH:0.500748
G1 X125.744 Y126.383 E.01793
;WIDTH:0.534016
G1 X125.425 Y126.003 E.01923
G1 X124.701 Y125.32 E.03859
;WIDTH:0.499999
G1 X110.648 Y112.711 E.68169
G1 X110.497 Y112.678 E.00561
G1 X110.345 Y112.759 E.00622
G1 X97.111 Y126.149 E.67973
;WIDTH:0.537146
G1 X96.418 Y126.884 E.03945
G1 X96.128 Y127.278 E.01908
;WIDTH:0.502313
G1 X95.839 Y127.671 E.01774
;WIDTH:0.467479
G1 X95.016 Y128.503 E.03924
G1 X95.491 Y127.431 E.03933
;WIDTH:0.500747
G1 X95.754 Y127.011 E.01793
;WIDTH:0.534015
G1 X96.017 Y126.591 E.01923
G1 X96.442 Y125.691 E.0386
;WIDTH:0.499999
G1 X104.069 Y108.481 E.67969
G1 X104.085 Y108.348 E.00484
G1 X103.989 Y108.199 E.00639
G1 X87.963 Y97.276 E.70026
;WIDTH:0.534251
G1 X87.077 Y96.708 E.04084
G1 X86.646 Y96.497 E.01864
;WIDTH:0.499141
G1 X86.214 Y96.286 E.01731
;WIDTH:0.46403
G1 X85.241 Y95.623 E.03917
G1 X86.376 Y95.9 E.03885
;WIDTH:0.497858
G1 X86.845 Y96.085 E.01812
;WIDTH:0.531686
G1 X87.313 Y96.271 E.01946
G1 X88.277 Y96.536 E.03858
;WIDTH:0.499999
G1 X106.116 Y100.898 E.66307
G1 X106.276 Y100.833 E.00624
G1 X106.352 Y100.675 E.00633
G1 X109.191 Y82.042 E.68052
;WIDTH:0.537104
G1 X109.319 Y81.041 E.03939
G1 X109.323 Y80.552 E.01908
;WIDTH:0.502706
G1 X109.326 Y80.063 E.01775
;WIDTH:0.468307
G1 X109.502 Y78.909 E.03923
G1 X109.749 Y80.06 E.03955
;WIDTH:0.501684
G1 X109.782 Y80.556 E.01802
;WIDTH:0.53506
G1 X109.816 Y81.052 E.01934
G1 X110.003 Y82.032 E.03877
;WIDTH:0.499999
G1 X113.951 Y100.447 E.67999
G1 X114.046 Y100.588 E.00614
M73 P6 R5
M73 P6 R5
G1 X114.212 Y100.624 E.00612
G1 X132.807 Y97.567 E.68043
;WIDTH:0.537147
G1 X133.801 Y97.379 E.03949
G1 X134.267 Y97.231 E.01908
;WIDTH:0.502312
G1 X134.733 Y97.083 E.01774
;WIDTH:0.467477
G1 X135.887 Y96.894 E.03924
G1 X134.873 Y97.482 E.03933
;WIDTH:0.501379
G1 X134.413 Y97.667 E.01795
;WIDTH:0.53528
G1 X133.953 Y97.852 E.01928
G1 X133.081 Y98.33 E.03869
;WIDTH:0.499999
G1 X116.811 Y107.761 E.67898
G1 E-.56 F1800
;WIPE_START
G1 F3000
G1 X116.672 Y107.914 E-.04973
G1 X116.688 Y108.084 E-.04082
G1 X116.974 Y108.637 E-.14945
;WIPE_END
G1 Z.4 F18000
G1 X130.56 Y99.105
G1 Z.4
G1 Z.2
G1 E.8 F1800
;TYPE:Bottom surface
;WIDTH:0.50419
G1 F6300
G1 X130.253 Y98.798 E.01581
G1 X129.693 Y98.89 E.02069
G1 X129.996 Y99.193 E.01565
G1 X129.583 Y99.433 E.01739
G1 X129.132 Y98.982 E.02324
G1 X128.572 Y99.074 E.02069
G1 X129.17 Y99.672 E.03082
G1 X128.757 Y99.912 E.01739
G1 X128.012 Y99.166 E.03841
G1 X127.452 Y99.258 E.02069
G1 X128.344 Y100.151 E.046
G1 X127.931 Y100.39 E.01739
G1 X126.891 Y99.35 E.05359
G1 X126.331 Y99.442 E.02069
G1 X127.519 Y100.63 E.06118
G1 X127.106 Y100.869 E.01739
G1 X125.771 Y99.535 E.06877
G1 X125.211 Y99.627 E.02069
G1 X126.693 Y101.108 E.07636
G1 X126.28 Y101.348 E.01739
G1 X124.651 Y99.719 E.08395
G1 X124.09 Y99.811 E.02069
G1 X125.867 Y101.587 E.09153
G1 X125.454 Y101.827 E.01739
G1 X123.53 Y99.903 E.09912
G1 X122.97 Y99.995 E.02069
M73 P7 R5
M73 P7 R5
G1 X125.041 Y102.066 E.10671
G1 X124.628 Y102.305 E.01739
G1 X122.41 Y100.087 E.1143
G1 X121.849 Y100.179 E.02069
G1 X124.215 Y102.545 E.12189
G1 X123.802 Y102.784 E.01739
G1 X121.289 Y100.271 E.12948
G1 X120.729 Y100.364 E.02069
G1 X123.389 Y103.023 E.13707
G1 X122.976 Y103.263 E.01739
G1 X120.169 Y100.456 E.14466
G1 X119.609 Y100.548 E.02069
G1 X122.563 Y103.502 E.15224
G1 X122.15 Y103.742 E.01739
G1 X119.048 Y100.64 E.15983
G1 X118.488 Y100.732 E.02069
G1 X121.737 Y103.981 E.16742
G1 X121.324 Y104.22 E.01739
G1 X117.928 Y100.824 E.17501
G1 X117.368 Y100.916 E.02069
G1 X120.911 Y104.46 E.1826
G1 X120.498 Y104.699 E.01739
G1 X116.807 Y101.008 E.19019
G1 X116.247 Y101.1 E.02069
G1 X120.085 Y104.938 E.19778
G1 X119.672 Y105.178 E.01739
G1 X115.687 Y101.192 E.20537
G1 X115.127 Y101.285 E.02069
G1 X119.259 Y105.417 E.21295
G1 X118.846 Y105.657 E.01739
G1 X114.388 Y101.198 E.22977
G1 E-.56 F1800
;WIPE_START
G1 F6300
G1 X115.095 Y101.905 E-.24
;WIPE_END
G1 X113.998 Y98.25 Z.4 F18000
G1 X110.059 Y85.127 Z.4
G1 Z.2
M73 P8 R5
M73 P8 R5
G1 E.8 F1800
G1 F6300
G1 X109.6 Y84.668 E.02366
G1 X109.514 Y85.234 E.02086
G1 X109.969 Y85.69 E.02348
G1 X110.147 Y86.52 E.03094
G1 X109.427 Y85.8 E.03709
G1 X109.341 Y86.366 E.02086
G1 X110.325 Y87.35 E.05071
G1 X110.503 Y88.181 E.03094
G1 X109.255 Y86.932 E.06433
G1 X109.169 Y87.499 E.02086
G1 X110.681 Y89.011 E.07794
G1 X110.859 Y89.841 E.03094
G1 X109.082 Y88.065 E.09156
G1 X108.996 Y88.631 E.02086
G1 X111.037 Y90.672 E.10518
G1 X111.215 Y91.502 E.03094
G1 X108.91 Y89.197 E.1188
G1 X108.824 Y89.763 E.02086
G1 X111.393 Y92.333 E.13241
G1 X111.571 Y93.163 E.03094
G1 X108.737 Y90.329 E.14603
G1 X108.651 Y90.895 E.02086
G1 X111.749 Y93.993 E.15965
G1 X111.927 Y94.824 E.03094
G1 X108.565 Y91.461 E.17327
G1 X108.479 Y92.027 E.02086
G1 X112.105 Y95.654 E.18688
G1 X112.283 Y96.484 E.03094
G1 X108.392 Y92.593 E.2005
G1 X108.306 Y93.159 E.02086
G1 X112.461 Y97.315 E.21412
G1 X112.639 Y98.145 E.03094
G1 X108.22 Y93.725 E.22773
G1 X108.134 Y94.292 E.02086
G1 X112.817 Y98.975 E.24135
G1 X112.995 Y99.806 E.03094
G1 X108.047 Y94.858 E.25497
G1 X107.961 Y95.424 E.02086
M73 P9 R5
M73 P9 R5
G1 X118.434 Y105.896 E.53964
G1 X118.021 Y106.135 E.01739
G1 X107.875 Y95.99 E.5228
G1 X107.789 Y96.556 E.02086
G1 X117.608 Y106.375 E.50597
G1 X117.195 Y106.614 E.01739
G1 X107.702 Y97.122 E.48913
G1 X107.616 Y97.688 E.02086
G1 X116.782 Y106.854 E.4723
G2 X116.369 Y107.093 I1.1 J2.371 E.01741
G1 X107.53 Y98.254 E.45547
G1 X107.444 Y98.82 E.02086
G1 X116.039 Y107.416 E.44292
G2 X115.869 Y107.898 I.644 J.498 E.01895
G1 X107.357 Y99.386 E.4386
G1 X107.271 Y99.952 E.02086
G1 X116.2 Y108.881 E.46009
G1 X116.898 Y110.231 E.05539
G1 X107.185 Y100.518 E.50051
G3 X107.068 Y101.054 I-1.717 J-.095 E.02005
M73 P10 R5
M73 P10 R5
G1 X117.596 Y111.582 E.54251
G1 X118.294 Y112.932 E.05539
G1 X106.799 Y101.437 E.59234
G3 X106.367 Y101.658 I-.679 J-.795 E.01783
G1 X118.992 Y114.283 E.65056
G1 X119.69 Y115.633 E.05539
G1 X105.669 Y101.612 E.72252
G1 X104.806 Y101.401 E.03239
G1 X120.389 Y116.984 E.80298
G1 X121.087 Y118.334 E.05539
G1 X103.942 Y101.19 E.88345
G1 X103.079 Y100.979 E.03239
M73 P10 R4
M73 P10 R4
G1 X121.785 Y119.685 E.96392
G1 X122.483 Y121.035 E.05539
G1 X102.215 Y100.767 E1.04439
G1 X101.352 Y100.556 E.03239
G1 X123.181 Y122.386 E1.12486
G1 X123.611 Y123.217 E.0341
M73 P11 R4
M73 P11 R4
G1 X123.581 Y123.24 E.00139
G1 X121.661 Y121.518 E.09399
G1 X100.488 Y100.345 E1.09101
G1 X99.625 Y100.134 E.03239
G1 X115.312 Y115.821 E.80834
G1 X111.205 Y112.136 E.20106
G2 X110.746 Y111.907 I-.669 J.769 E.01888
G1 X98.761 Y99.923 E.61756
G1 X97.898 Y99.712 E.03239
G1 X110.141 Y111.955 E.6309
G2 X109.753 Y112.219 I.396 J.998 E.01725
G1 X97.035 Y99.501 E.65539
G1 X96.171 Y99.29 E.03239
G1 X109.429 Y112.548 E.68318
G1 X109.105 Y112.876 E.01681
G1 X104.86 Y108.63 E.21875
G3 X104.672 Y109.095 I-2.501 J-.74 E.01829
G1 X108.78 Y113.204 E.21171
G1 X108.456 Y113.532 E.01681
M73 P12 R4
M73 P12 R4
G1 X104.472 Y109.547 E.20533
G1 X104.271 Y109.999 E.01802
G1 X108.132 Y113.86 E.19894
G1 X107.808 Y114.188 E.01681
G1 X104.071 Y110.451 E.19255
G1 X103.871 Y110.903 E.01802
G1 X107.484 Y114.516 E.18617
G1 X107.159 Y114.844 E.01681
G1 X103.67 Y111.355 E.17978
G1 X103.47 Y111.807 E.01802
G1 X106.835 Y115.172 E.1734
G1 X106.511 Y115.5 E.01681
G1 X103.27 Y112.259 E.16701
G1 X103.069 Y112.711 E.01802
G1 X106.187 Y115.828 E.16062
G1 X105.862 Y116.156 E.01681
G1 X102.869 Y113.163 E.15424
G1 X102.669 Y113.615 E.01802
G1 X105.538 Y116.485 E.14785
G1 X105.214 Y116.813 E.01681
G1 X102.468 Y114.067 E.14146
G1 X102.268 Y114.519 E.01802
G1 X104.89 Y117.141 E.13508
G1 X104.565 Y117.469 E.01681
G1 X102.068 Y114.971 E.12869
G1 X101.868 Y115.423 E.01802
G1 X104.241 Y117.797 E.1223
G1 X103.917 Y118.125 E.01681
G1 X101.667 Y115.875 E.11592
G1 X101.467 Y116.327 E.01802
G1 X103.593 Y118.453 E.10953
G1 X103.268 Y118.781 E.01681
G1 X101.267 Y116.78 E.10314
G1 X101.066 Y117.232 E.01802
G1 X102.944 Y119.109 E.09676
G1 X102.62 Y119.437 E.01681
M73 P13 R4
M73 P13 R4
G1 X100.866 Y117.684 E.09037
G1 X100.666 Y118.136 E.01802
G1 X102.296 Y119.765 E.08398
G1 X101.971 Y120.093 E.01681
G1 X100.465 Y118.588 E.0776
G1 X100.265 Y119.04 E.01802
G1 X101.647 Y120.422 E.07121
G1 X101.323 Y120.75 E.01681
G1 X100.065 Y119.492 E.06482
G1 X99.864 Y119.944 E.01802
G1 X100.999 Y121.078 E.05844
G1 X100.674 Y121.406 E.01681
G1 X99.664 Y120.396 E.05205
G1 X99.464 Y120.848 E.01802
G1 X100.35 Y121.734 E.04567
G1 X100.026 Y122.062 E.01681
G1 X99.264 Y121.3 E.03928
G1 X99.063 Y121.752 E.01802
G1 X99.702 Y122.39 E.03289
G1 X99.377 Y122.718 E.01681
G1 X98.863 Y122.204 E.02651
G1 X98.663 Y122.656 E.01802
G1 X99.053 Y123.046 E.02012
G1 X98.729 Y123.374 E.01681
G1 X98.462 Y123.108 E.01373
G1 X98.262 Y123.56 E.01802
G1 X98.55 Y123.848 E.01484
G1 E-.56 F1800
;WIPE_START
G1 F6300
G1 X98.262 Y123.56 E-.09775
G1 X98.462 Y123.108 E-.11866
G1 X98.532 Y123.177 E-.02359
;WIPE_END
G1 X99.564 Y119.503 Z.4 F18000
G1 X103.111 Y106.882 Z.4
G1 Z.2
G1 E.8 F1800
G1 F6300
G1 X95.308 Y99.078 E.4021
G1 X94.444 Y98.867 E.03239
G1 X100.28 Y104.704 E.30074
G1 X98.232 Y103.307 E.09034
G1 X93.581 Y98.656 E.23967
G1 X92.717 Y98.445 E.03239
G1 X96.183 Y101.911 E.1786
G1 X94.134 Y100.515 E.09034
G1 X91.854 Y98.234 E.11752
G1 X90.99 Y98.023 E.03239
G1 X92.867 Y99.9 E.09673
G1 E-.56 F1800
M73 P14 R4
;WIPE_START
M73 P14 R4
G1 F6300
G1 X92.16 Y99.193 E-.24
;WIPE_END
G1 X95.236 Y101.452 Z.4 F18000
G1 X123.009 Y121.855 Z.4
G1 Z.2
G1 E.8 F1800
;TYPE:Gap infill
;WIDTH:0.120611
G1 F3000
G1 X122.9 Y121.705 E.00114
;WIDTH:0.166298
G1 X122.79 Y121.555 E.00181
;WIDTH:0.211985
G1 X122.681 Y121.406 E.00248
;WIDTH:0.234829
G1 X122.572 Y121.256 E.00281
G1 E-.56 F1800
;WIPE_START
G1 F3000
G1 X122.681 Y121.406 E-.24
;WIPE_END
G1 X119.354 Y119.536 Z.4 F18000
G1 X119.264 Y119.485 Z.4
G1 Z.2
G1 E.8 F1800
;WIDTH:0.120172
G1 F3000
G1 X118.64 Y118.894 E.00525
;WIDTH:0.164974
G1 X118.016 Y118.302 E.00829
;WIDTH:0.209776
G1 X117.392 Y117.711 E.01133
;WIDTH:0.254579
G1 X116.768 Y117.12 E.01437
;WIDTH:0.299381
G1 X116.143 Y116.529 E.01742
;WIDTH:0.321782
G1 X115.519 Y115.937 E.01894
G1 E-.56 F1800
;WIPE_START
G1 F3000
G1 X116.143 Y116.529 E-.24
;WIPE_END
G1 X119.584 Y118.18 Z.4 F18000
G1 X121.613 Y119.154 Z.4
G1 Z.2
G1 E.8 F1800
;WIDTH:0.120611
G1 F3000
G1 X121.503 Y119.004 E.00114
;WIDTH:0.166298
G1 X121.394 Y118.854 E.00181
;WIDTH:0.211985
G1 X121.285 Y118.705 E.00248
;WIDTH:0.234828
G1 X121.175 Y118.555 E.00281
G1 E-.56 F1800
;WIPE_START
G1 F3000
G1 X121.285 Y118.705 E-.24
;WIPE_END
G1 X120.217 Y116.453 Z.4 F18000
G1 Z.2
G1 E.8 F1800
;WIDTH:0.120611
G1 F3000
G1 X120.107 Y116.303 E.00114
;WIDTH:0.166298
G1 X119.998 Y116.154 E.00181
;WIDTH:0.211985
G1 X119.888 Y116.004 E.00248
;WIDTH:0.234829
G1 X119.779 Y115.854 E.00281
G1 E-.56 F1800
;WIPE_START
G1 F3000
G1 X119.888 Y116.004 E-.24
;WIPE_END
G1 X118.82 Y113.752 Z.4 F18000
G1 Z.2
G1 E.8 F1800
;WIDTH:0.120611
G1 F3000
G1 X118.711 Y113.602 E.00114
;WIDTH:0.166298
G1 X118.602 Y113.453 E.00181
;WIDTH:0.211985
G1 X118.492 Y113.303 E.00248
;WIDTH:0.234828
G1 X118.383 Y113.153 E.00281
G1 E-.56 F1800
;WIPE_START
G1 F3000
G1 X118.492 Y113.303 E-.24
;WIPE_END
G1 X117.424 Y111.051 Z.4 F18000
G1 Z.2
G1 E.8 F1800
;WIDTH:0.120611
G1 F3000
G1 X117.315 Y110.901 E.00114
;WIDTH:0.166298
G1 X117.205 Y110.752 E.00181
;WIDTH:0.211985
G1 X117.096 Y110.602 E.00248
;WIDTH:0.234828
G1 X116.987 Y110.452 E.00281
G1 E-.56 F1800
;WIPE_START
G1 F3000
G1 X117.096 Y110.602 E-.24
;WIPE_END
G1 X116.038 Y108.369 Z.4 F18000
G1 Z.2
G1 E.8 F1800
;WIDTH:0.136927
G1 F3000
G1 X115.897 Y108.136 E.00202
G1 E-.56 F1800
;WIPE_START
G1 F3000
G1 X116.038 Y108.369 E-.24
;WIPE_END
G1 X112.242 Y107.971 Z.4 F18000
G1 X103.583 Y107.063 Z.4
M73 P15 R4
M73 P15 R4
G1 Z.2
G1 E.8 F1800
;WIDTH:0.115226
G1 F3000
G1 X103.404 Y106.915 E.00132
;WIDTH:0.132682
G1 X103.226 Y106.767 E.00164
G1 E-.56 F1800
;WIPE_START
G1 F3000
G1 X103.404 Y106.915 E-.24
;WIPE_END
G1 X101.534 Y105.666 Z.4 F18000
G1 Z.2
G1 E.8 F1800
;WIDTH:0.119886
G1 F3000
G1 X101.326 Y105.494 E.00164
;WIDTH:0.164118
G1 X101.119 Y105.322 E.00258
;WIDTH:0.208349
G1 X100.911 Y105.15 E.00353
;WIDTH:0.252581
G1 X100.703 Y104.978 E.00447
;WIDTH:0.274697
G1 X100.495 Y104.806 E.00494
G1 E-.56 F1800
;WIPE_START
G1 F3000
G1 X100.703 Y104.978 E-.24
;WIPE_END
G1 X97.495 Y102.911 Z.4 F18000
G1 X97.437 Y102.874 Z.4
G1 Z.2
G1 E.8 F1800
;WIDTH:0.119886
G1 F3000
G1 X97.229 Y102.702 E.00164
;WIDTH:0.164118
G1 X97.021 Y102.529 E.00258
;WIDTH:0.208349
G1 X96.813 Y102.357 E.00353
;WIDTH:0.252581
G1 X96.606 Y102.185 E.00447
;WIDTH:0.274697
G1 X96.398 Y102.013 E.00494
G1 E-.56 F1800
;WIPE_START
G1 F3000
G1 X96.606 Y102.185 E-.24
;WIPE_END
G1 X93.547 Y99.903 Z.4 F18000
G1 X90.809 Y97.861 Z.4
G1 Z.2
G1 E.8 F1800
;WIDTH:0.398818
G1 F3000
G1 X90.54 Y97.982 E.00831
;WIDTH:0.387872
G1 X90.562 Y98.021 E.00121
;WIDTH:0.349395
G1 X90.584 Y98.06 E.00108
;WIDTH:0.310918
G1 X90.607 Y98.098 E.00094
;WIDTH:0.272442
G1 X90.629 Y98.137 E.00081
;WIDTH:0.233774
G1 X90.795 Y98.274 E.00324
