; HEADER_BLOCK_START
; generated by Creality_Print V6.0.4.1794 on 2025-03-20 at 23:53:51
; total layer number: 15
; filament_density: 1.24
; filament_diameter: 1.75
; max_z_height: 3.00
; HEADER_BLOCK_END

; MINX = 82.00
; MINY = 82.01
; MINZ = 0.00
; MAXX = 138.00
; MAXY = 137.99
; MAXZ = 3.00

; THUMBNAIL_BLOCK_START

;
; THUMBNAIL_BLOCK_END

; THUMBNAIL_BLOCK_START

;
; THUMBNAIL_BLOCK_END

; external perimeters extrusion width = 0.42mm
; perimeters extrusion width = 0.45mm
; infill extrusion width = 0.45mm
; solid infill extrusion width = 0.42mm
; top infill extrusion width = 0.42mm
; first layer extrusion width = 0.50mm

; EXECUTABLE_BLOCK_START
EXCLUDE_OBJECT_DEFINE NAME=atom.STL_id_0_copy_0 CENTER=110,110 POLYGON=[[82,110],[82.1484,107.121],[82.592,104.273],[83.3262,101.485],[84.3431,98.7873],[85.632,96.2087],[87.1792,93.7762],[88.9683,91.5157],[90.9803,89.4512],[93.194,87.6045],[95.5858,85.9952],[98.1304,84.6403],[100.801,83.5543],[103.569,82.7486],[106.405,82.2318],[109.279,82.0093],[112.161,82.0835],[115.02,82.4537],[117.826,83.1158],[120.548,84.0629],[123.159,85.285],[125.631,86.769],[127.937,88.4993],[130.052,90.4576],[131.955,92.6229],[133.626,94.9725],[135.046,97.4814],[136.2,100.123],[137.077,102.869],[137.666,105.691],[137.963,108.559],[138,110],[137.963,111.441],[137.666,114.309],[137.077,117.131],[136.2,119.877],[135.046,122.519],[133.626,125.027],[131.955,127.377],[130.052,129.542],[127.937,131.501],[125.631,133.231],[123.159,134.715],[120.548,135.937],[117.826,136.884],[115.02,137.546],[112.161,137.916],[109.279,137.991],[106.405,137.768],[103.569,137.251],[100.801,136.446],[98.1304,135.36],[95.5858,134.005],[93.194,132.395],[90.9803,130.549],[88.9683,128.484],[87.1792,126.224],[85.632,123.791],[84.3431,121.213],[83.3262,118.515],[82.592,115.727],[82.1484,112.879],[82,110]]
M73 P0 R8
;TYPE:Custom
M220 S100 ;Reset Feedrate 
M221 S100 ;Reset Flowrate 
 
M140 S50 ;Set final bed temp  
G28 ;Home 
 
G92 E0 ;Reset Extruder 
G1 Z2.0 F3000 ;Move Z Axis up 
M104 S220 ;Set final nozzle temp  
G1 X-2.0 Y20 Z0.28 F5000.0 ;Move to start position 
M190 S50 ;Wait for bed temp to stabilize  
M109 S220 ;Wait for nozzle temp to stabilize  
G1 X-2.0 Y145.0 Z0.28 F1500.0 E15 ;Draw the first line 
G1 X-1.7 Y145.0 Z0.28 F5000.0 ;Move to side a little 
M73 P1 R8
M73 P1 R8
G1 X-1.7 Y20 Z0.28 F1500.0 E30 ;Draw the second line 
G92 E0 ;Reset Extruder 
G1 E-1.0000 F1800 ;Retract a bit 
M73 P2 R8
M73 P2 R8
G1 Z2.0 F3000 ;Move Z Axis up 
G1 E0.0000 F1800
G90
G21
M83 ; use relative distances for extrusion
; filament start gcode
SET_PRESSURE_ADVANCE ADVANCE=0.044; Override pressure advance value
G1 E-.8 F1800
M106 S0
;LAYER_CHANGE
;Z:0.2
;HEIGHT:0.2
;BEFORE_LAYER_CHANGE
;0.2
G92 E0

;_SET_FAN_SPEED_CHANGING_LAYER
SET_VELOCITY_LIMIT ACCEL=500 ACCEL_TO_DECEL=125
SET_VELOCITY_LIMIT SQUARE_CORNER_VELOCITY=9
; printing object atom.STL id:0 copy 0
EXCLUDE_OBJECT_START NAME=atom.STL_id_0_copy_0
G1 Z.2 F18000
G1 X107.014 Y83.044
G1 E.8 F1800
M73 P2 R7
;TYPE:Inner wall
;WIDTH:0.499999
M73 P2 R7
G1 F3000
G1 X109.301 Y82.867 E.08284
G1 X112.095 Y82.939 E.1009
G1 X114.866 Y83.298 E.1009
G1 X117.586 Y83.94 E.1009
G1 X120.225 Y84.858 E.1009
G3 X123.004 Y86.171 I-44.364 J97.488 E.11097
;WIDTH:0.464952
G1 X123.238 Y86.291 E.00879
;WIDTH:0.429905
G1 X123.473 Y86.412 E.00806
;WIDTH:0.429728
G1 X125.171 Y87.452 E.06082
G1 X126.001 Y88.054 E.03134
;WIDTH:0.430086
G1 X127.409 Y89.131 E.05421
G1 X128.206 Y89.847 E.03278
;WIDTH:0.430403
G1 X129.462 Y91.032 E.05284
G1 X130.185 Y91.828 E.03293
;WIDTH:0.430683
G1 X131.309 Y93.134 E.05276
G1 X131.973 Y94.038 E.03437
;WIDTH:0.43092
G1 X132.93 Y95.414 E.05138
G1 X133.521 Y96.422 E.0358
;WIDTH:0.431118
G1 X134.308 Y97.849 E.04999
G1 X134.811 Y98.955 E.03724
;WIDTH:0.431278
G1 X135.429 Y100.413 E.04859
G1 X135.83 Y101.608 E.03867
;WIDTH:0.431475
G1 X136.28 Y103.079 E.0472
G3 X136.852 Y105.818 I-52.005 J12.297 E.08589
G1 X137.01 Y107.162 E.04153
;WIDTH:0.431848
G3 X137.19 Y110.138 I-25.572 J3.048 E.09168
;WIDTH:0.456765
G1 X137.157 Y110.443 E.01003
;WIDTH:0.499999
G2 X137.107 Y111.386 I5.592 J.769 E.03413
G1 X136.818 Y114.177 E.1013
G1 X136.247 Y116.912 E.1009
G1 X135.397 Y119.574 E.1009
G1 X134.278 Y122.135 E.1009
G1 X132.902 Y124.567 E.1009
G1 X131.282 Y126.844 E.1009
G1 X129.438 Y128.943 E.1009
G1 X127.387 Y130.842 E.1009
G1 X125.152 Y132.519 E.1009
G2 X124.145 Y133.144 I4.272 J8 E.0428
;WIDTH:0.464213
G1 X123.92 Y133.3 E.00912
;WIDTH:0.428426
G1 X123.695 Y133.456 E.00834
;WIDTH:0.429331
G1 X122.772 Y133.989 E.03255
G1 X121.05 Y134.813 E.05826
;WIDTH:0.428893
G1 X120.229 Y135.178 E.02739
G1 X118.396 Y135.832 E.05934
;WIDTH:0.428414
G1 X117.586 Y136.097 E.02594
G1 X115.65 Y136.569 E.06068
;WIDTH:0.427898
G1 X114.863 Y136.739 E.0245
G1 X112.842 Y137.015 E.06201
;WIDTH:0.427345
G1 X112.088 Y137.097 E.02306
G1 X110.003 Y137.165 E.06333
;WIDTH:0.426747
G1 X109.29 Y137.169 E.02161
G1 X107.164 Y137.017 E.06464
;WIDTH:0.426112
G1 X106.501 Y136.952 E.02017
G1 X104.454 Y136.591 E.06291
;WIDTH:0.429391
G1 X103.748 Y136.448 E.02199
G1 X101.61 Y135.84 E.06787
;WIDTH:0.424719
G1 X101.061 Y135.667 E.01734
G1 X98.656 Y134.703 E.07816
;WIDTH:0.402741
G1 X96.307 Y133.472 E.07536
;WIDTH:0.441315
G1 X96.161 Y133.372 E.00559
;WIDTH:0.481283
G1 X96.014 Y133.271 E.00615
;WIDTH:0.499999
G2 X93.709 Y131.709 I-55.942 J80.06 E.10055
G1 X91.563 Y129.919 E.1009
G1 X89.613 Y127.918 E.1009
G1 X87.879 Y125.726 E.1009
G1 X86.379 Y123.369 E.1009
G1 X85.13 Y120.869 E.1009
G1 X84.144 Y118.254 E.1009
G1 X83.432 Y115.552 E.1009
G1 X83.002 Y112.791 E.1009
G1 X82.907 Y110.954 E.0664
G1 X82.861 Y110.472 E.01748
;WIDTH:0.456516
G1 X82.815 Y109.99 E.01581
;WIDTH:0.414226
G1 X82.96 Y107.193 E.08216
;WIDTH:0.415378
G1 X83.394 Y104.416 E.0827
;WIDTH:0.416491
G1 X84.113 Y101.699 E.08294
;WIDTH:0.417563
G1 X85.099 Y99.095 E.08241
;WIDTH:0.418938
G1 X86.371 Y96.558 E.08428
;WIDTH:0.419593
G1 X87.884 Y94.191 E.0836
M73 P3 R7
;WIDTH:0.420544
M73 P3 R7
G1 X89.577 Y92.064 E.08109
G1 X89.833 Y91.789 E.01121
;WIDTH:0.421461
G1 X91.53 Y90.059 E.07244
G1 X91.847 Y89.783 E.01258
;WIDTH:0.422335
G1 X93.678 Y88.266 E.07126
G1 X94.07 Y87.99 E.01436
;WIDTH:0.423171
G1 X96.006 Y86.699 E.0699
G1 X96.594 Y86.37 E.02025
;WIDTH:0.430653
G1 X96.823 Y86.268 E.00765
;WIDTH:0.465326
G1 X97.051 Y86.167 E.00834
;WIDTH:0.499999
G1 X97.279 Y86.065 E.00902
G1 X98.494 Y85.418 E.04972
G1 X101.083 Y84.365 E.1009
G1 X103.766 Y83.584 E.1009
G1 X106.515 Y83.083 E.1009
G1 X106.974 Y83.047 E.01661
G1 E-.56 F1800
;WIPE_START
G1 F3000
G1 X107.971 Y82.97 E-.24
;WIPE_END
G1 X110.724 Y85.613 Z.4 F18000
G1 X136.726 Y110.567 Z.4
G1 Z.2
G1 E.8 F1800
G1 F3000
G1 X136.716 Y110.6 E.00122
G1 X136.389 Y110.825 E.01435
G1 X136.181 Y110.857 E.00759
G1 X117.841 Y110.857 E.66217
G1 X117.489 Y110.76 E.01318
G1 X117.341 Y110.494 E.011
;WIDTH:0.465446
G1 X117.192 Y110.228 E.01017
;WIDTH:0.430892
G1 X117.103 Y108.944 E.03945
;WIDTH:0.421938
G1 X116.864 Y107.898 E.03212
;WIDTH:0.424109
G1 X116.473 Y106.899 E.0323
G2 X115.54 Y105.45 I-7.09 J3.541 E.05197
;WIDTH:0.421938
G1 X115.253 Y105.107 E.01341
G1 X114.672 Y104.558 E.02393
;WIDTH:0.417598
G1 X114.466 Y104.377 E.0081
G1 X113.655 Y103.82 E.02912
;WIDTH:0.430065
G1 X113.405 Y103.661 E.00905
;WIDTH:0.465032
G1 X113.246 Y103.398 E.01027
;WIDTH:0.499999
G1 X113.086 Y103.134 E.01112
G1 X113.178 Y102.781 E.01318
G1 X122.348 Y86.898 E.66218
G1 X122.714 Y86.594 E.01718
G1 X122.899 Y86.629 E.00679
;WIDTH:0.464952
G1 X123.084 Y86.664 E.00627
;WIDTH:0.429905
G1 X123.269 Y86.699 E.00575
;WIDTH:0.429728
G3 X125.756 Y88.312 I-30.076 J49.081 E.0906
;WIDTH:0.430086
G3 X127.936 Y90.078 I-33.183 J43.204 E.08583
;WIDTH:0.430403
G3 X129.921 Y92.063 I-37.518 J39.5 E.0859
;WIDTH:0.430683
G3 X131.686 Y94.243 I-41.443 J35.363 E.08596
;WIDTH:0.43092
G3 X133.215 Y96.596 I-44.909 J30.836 E.08601
;WIDTH:0.431118
G3 X134.488 Y99.097 I-47.886 J25.973 E.08605
;WIDTH:0.431278
G3 X135.494 Y101.716 I-50.337 J20.825 E.08609
;WIDTH:0.431395
G3 X136.22 Y104.427 I-52.243 J15.45 E.08611
G3 X136.659 Y107.198 I-53.571 J9.905 E.08611
;WIDTH:0.431848
G3 X136.815 Y110.01 I-72.698 J5.455 E.08652
;WIDTH:0.41353
G1 X136.81 Y110.299 E.00846
;WIDTH:0.456742
G1 X136.763 Y110.449 E.00515
;WIDTH:0.499999
G1 X136.738 Y110.529 E.00303
G1 X136.409 Y110.159 F18000
;TYPE:Outer wall
G1 F3000
G1 X136.359 Y110.314 E.00587
G1 X136.181 Y110.4 E.00715
G1 X117.841 Y110.4 E.66217
G1 X117.724 Y110.368 E.00439
G1 X117.613 Y110.189 E.0076
G1 X117.514 Y108.867 E.04783
G1 X117.261 Y107.76 E.04101
G1 X116.846 Y106.703 E.04101
G1 X116.278 Y105.719 E.04101
G1 X115.57 Y104.831 E.04101
G1 X114.738 Y104.059 E.04101
G1 X113.643 Y103.313 E.04783
G1 X113.546 Y103.088 E.00885
G1 X113.817 Y102.588 E.02052
G1 X122.744 Y87.127 E.6446
G1 X122.866 Y87.026 E.00573
G1 X123.066 Y87.049 E.00729
G1 X125.518 Y88.642 E.10554
G1 X127.665 Y90.381 E.09978
G1 X129.619 Y92.335 E.09977
G1 X131.358 Y94.482 E.09978
G1 X132.864 Y96.8 E.09978
G1 X134.118 Y99.262 E.09977
G1 X135.108 Y101.842 E.09978
G1 X135.824 Y104.511 E.09977
G1 X136.256 Y107.24 E.09978
M73 P4 R7
M73 P4 R7
G1 X136.407 Y110.12 E.1041
G1 X136.434 Y110.18
G1 E-.56 F1800
;WIPE_START
G1 F3000
G1 X136.359 Y110.314 E-.04809
G1 X136.181 Y110.4 E-.04753
G1 X135.579 Y110.4 E-.14438
;WIPE_END
G1 X131.882 Y111.346 Z.4 F18000
G1 X110.774 Y116.744 Z.4
G1 Z.2
G1 E.8 F1800
;TYPE:Inner wall
;WIDTH:0.424109
G1 F3000
G1 X110 Y116.809 E.0234
G3 X108.873 Y116.714 I.588 J-13.673 E.03408
;WIDTH:0.406991
G1 X107.724 Y116.417 E.03413
;WIDTH:0.41153
G1 X106.643 Y115.926 E.03456
;WIDTH:0.465033
G1 X106.141 Y115.608 E.01981
;WIDTH:0.499999
G1 X105.639 Y115.29 E.02146
G3 X104.71 Y114.361 I14.094 J-15.023 E.04745
G1 X104.059 Y113.43 E.04101
G1 X103.579 Y112.401 E.04101
G3 X103.259 Y111.249 I33.32 J-9.86 E.04315
G1 X103.227 Y110.738 E.01848
;WIDTH:0.465444
G1 X103.194 Y110.227 E.01709
;WIDTH:0.430889
G1 X103.271 Y108.974 E.03849
;WIDTH:0.421939
G1 X103.504 Y107.989 E.03031
G1 X103.622 Y107.619 E.01161
;WIDTH:0.42411
G3 X104.103 Y106.595 I12.617 J5.303 E.03408
G3 X104.749 Y105.667 I11.549 J7.347 E.03408
;WIDTH:0.406992
G1 X105.581 Y104.82 E.03413
;WIDTH:0.411529
G1 X106.546 Y104.129 E.03456
;WIDTH:0.455764
G1 X107.073 Y103.854 E.01938
;WIDTH:0.499999
G1 X107.599 Y103.579 E.02146
G3 X108.868 Y103.239 I5.963 J19.716 E.04745
G1 X109.95 Y103.144 E.03918
G1 X111.126 Y103.238 E.04263
G3 X112.288 Y103.538 I-7.503 J31.499 E.04333
G1 X112.752 Y103.767 E.01866
;WIDTH:0.465032
G1 X113.215 Y103.997 E.01723
;WIDTH:0.430065
G1 X114.253 Y104.685 E.03811
;WIDTH:0.421938
G1 X114.99 Y105.38 E.03031
G1 X115.251 Y105.667 E.01161
;WIDTH:0.424109
G3 X115.897 Y106.595 I-10.903 J8.276 E.03408
G3 X116.378 Y107.619 I-12.138 J6.328 E.03408
;WIDTH:0.406991
G1 X116.696 Y108.763 E.03413
;WIDTH:0.41153
G1 X116.811 Y109.944 E.03456
;WIDTH:0.455765
G1 X116.786 Y110.538 E.01938
;WIDTH:0.499999
G1 X116.761 Y111.132 E.02146
G3 X116.421 Y112.401 I-20.058 J-4.694 E.04745
G1 X115.941 Y113.43 E.04101
G1 X115.29 Y114.361 E.04101
G3 X114.452 Y115.213 I-25.197 J-23.924 E.04315
G1 X114.022 Y115.499 E.01866
;WIDTH:0.465032
G1 X113.592 Y115.786 E.01723
;WIDTH:0.430065
G1 X112.476 Y116.341 E.03811
;WIDTH:0.421938
G1 X111.506 Y116.631 E.03031
G1 X111.127 Y116.714 E.01161
;WIDTH:0.424109
G1 X110.814 Y116.74 E.00947
G1 E-.56 F1800
;WIPE_START
G1 F3000
G1 X110 Y116.809 E-.19607
G1 X109.818 Y116.794 E-.04393
;WIPE_END
G1 X112.324 Y119.671 Z.4 F18000
G1 X123.804 Y132.851 Z.4
G1 Z.2
G1 E.8 F1800
;WIDTH:0.464213
G1 F3000
G1 X123.731 Y132.956 E.00425
;WIDTH:0.428426
G1 X123.638 Y133.091 E.00499
;WIDTH:0.429331
G3 X120.933 Y134.475 I-28.209 J-51.802 E.09275
;WIDTH:0.428893
G3 X118.315 Y135.484 I-18.857 J-45.031 E.08556
;WIDTH:0.428414
G3 X115.606 Y136.213 I-13.97 J-46.469 E.08545
;WIDTH:0.427898
G3 X112.835 Y136.656 I-8.987 J-47.362 E.08534
;WIDTH:0.427345
G3 X110.033 Y136.807 I-3.968 J-47.69 E.08522
;WIDTH:0.426747
G3 X107.231 Y136.663 I1.018 J-47.453 E.08509
;WIDTH:0.426112
G3 X104.556 Y136.244 I5.685 J-45.011 E.08196
;WIDTH:0.429391
G3 X101.75 Y135.506 I11.188 J-48.254 E.0886
;WIDTH:0.424719
G1 X101.202 Y135.312 E.01755
G1 X99.001 Y134.455 E.07122
;WIDTH:0.420273
G1 X96.472 Y133.154 E.08476
;WIDTH:0.441315
G1 X96.357 Y133.087 E.0042
;WIDTH:0.481283
G1 X96.241 Y133.02 E.00463
;WIDTH:0.499999
G1 X96.076 Y132.581 E.01694
G1 X96.167 Y132.245 E.01259
G1 X105.337 Y116.362 E.66218
G1 X105.597 Y116.106 E.01318
G1 X105.905 Y116.112 E.01112
;WIDTH:0.465033
G1 X106.213 Y116.118 E.01027
;WIDTH:0.430066
G1 X107.364 Y116.679 E.03913
;WIDTH:0.421938
G1 X108.389 Y116.995 E.03212
;WIDTH:0.42411
G1 X109.449 Y117.156 E.0323
G2 X111.17 Y117.073 I.478 J-7.911 E.05198
;WIDTH:0.421938
G1 X111.611 Y116.995 E.01341
G1 X112.377 Y116.767 E.02393
;WIDTH:0.417597
G1 X112.636 Y116.679 E.0081
G1 X113.524 Y116.255 E.02912
;WIDTH:0.430065
G1 X113.787 Y116.118 E.00905
;WIDTH:0.465032
G1 X114.095 Y116.112 E.01027
;WIDTH:0.499999
G1 X114.403 Y116.106 E.01112
G1 X114.663 Y116.362 E.01318
G1 X123.833 Y132.245 E.66218
G1 X123.917 Y132.686 E.01624
G1 X123.826 Y132.818 E.00579
G1 X123.437 Y132.473 F18000
;TYPE:Outer wall
G1 F3000
G1 X123.465 Y132.62 E.00541
G1 X123.343 Y132.791 E.00758
G1 X120.749 Y134.113 E.10511
G3 X118.169 Y135.104 I-342.339 J-886.764 E.09977
G3 X115.501 Y135.821 I-234.4 J-867.88 E.09977
G3 X112.771 Y136.254 I-134.359 J-837.031 E.09977
G3 X110.012 Y136.4 I-43.428 J-795.369 E.09977
G3 X107.252 Y136.257 I37.299 J-744.571 E.09977
G3 X104.62 Y135.841 I103.143 J-661.75 E.09621
G3 X101.854 Y135.112 I212.453 J-811.512 E.10328
G3 X99.262 Y134.118 I198.111 J-520.718 E.10024
M73 P5 R7
M73 P5 R7
G1 X96.657 Y132.791 E.10554
G1 X96.586 Y132.734 E.00332
G1 X96.533 Y132.585 E.00568
G1 X96.563 Y132.473 E.0042
G1 X105.733 Y116.59 E.66218
G1 X105.82 Y116.505 E.00439
G1 X106.03 Y116.499 E.0076
G1 X107.224 Y117.074 E.04783
G1 X108.309 Y117.408 E.04101
G1 X109.432 Y117.578 E.04101
G1 X110.568 Y117.578 E.04101
G1 X111.691 Y117.408 E.04101
G1 X112.776 Y117.074 E.04101
G1 X113.97 Y116.499 E.04783
G1 X114.213 Y116.527 E.00885
G1 X114.51 Y117.012 E.02052
G1 X123.417 Y132.438 E.64316
G1 X123.466 Y132.48
G1 E-.56 F1800
;WIPE_START
G1 F3000
G1 X123.465 Y132.62 E-.04515
G1 X123.343 Y132.791 E-.05041
G1 X122.806 Y133.064 E-.14444
;WIPE_END
G1 X121.63 Y129.434 Z.4 F18000
G1 X106.456 Y82.629 Z.4
G1 Z.2
G1 E.8 F1800
G1 F3000
G1 X109.289 Y82.41 E.1026
G1 X112.13 Y82.483 E.1026
G1 X114.948 Y82.848 E.1026
G1 X117.714 Y83.5 E.1026
G1 X120.397 Y84.434 E.1026
G1 X122.971 Y85.639 E.1026
G1 X125.407 Y87.101 E.1026
G1 X127.68 Y88.807 E.1026
G1 X129.765 Y90.737 E.1026
G1 X131.641 Y92.872 E.1026
G1 X133.288 Y95.187 E.1026
G1 X134.687 Y97.66 E.1026
G1 X135.825 Y100.264 E.1026
G1 X136.689 Y102.971 E.1026
G1 X137.271 Y105.753 E.1026
G1 X137.563 Y108.584 E.10278
G1 X137.6 Y110 E.05113
G1 X137.563 Y111.416 E.05113
G1 X137.271 Y114.247 E.10278
G1 X136.689 Y117.029 E.1026
G1 X135.825 Y119.736 E.1026
G1 X134.687 Y122.34 E.1026
G1 X133.288 Y124.813 E.1026
G1 X131.641 Y127.128 E.1026
G1 X129.765 Y129.263 E.1026
G1 X127.68 Y131.193 E.1026
G1 X125.407 Y132.899 E.1026
G1 X122.971 Y134.361 E.1026
G1 X120.397 Y135.566 E.1026
G1 X117.714 Y136.5 E.1026
G1 X114.948 Y137.152 E.1026
G1 X112.13 Y137.517 E.1026
G1 X109.289 Y137.59 E.1026
G1 X106.456 Y137.371 E.1026
G1 X103.661 Y136.862 E.1026
G1 X100.932 Y136.067 E.1026
G1 X98.382 Y135.03 E.09942
G1 X95.792 Y133.661 E.10577
G1 X93.434 Y132.075 E.10258
G1 X91.252 Y130.255 E.1026
G1 X89.269 Y128.22 E.1026
G1 X87.506 Y125.992 E.1026
G1 X85.981 Y123.594 E.1026
G1 X84.71 Y121.052 E.1026
G1 X83.708 Y118.393 E.1026
G1 X82.984 Y115.646 E.1026
G1 X82.547 Y112.838 E.1026
G1 X82.401 Y110 E.1026
G1 X82.547 Y107.162 E.1026
M73 P6 R7
M73 P6 R7
G1 X82.984 Y104.354 E.1026
G1 X83.708 Y101.607 E.1026
G1 X84.71 Y98.948 E.1026
G1 X85.981 Y96.406 E.1026
G1 X87.506 Y94.008 E.1026
G1 X89.269 Y91.78 E.1026
G1 X91.252 Y89.745 E.1026
G1 X93.434 Y87.925 E.1026
G1 X95.792 Y86.339 E.1026
G1 X98.3 Y85.003 E.1026
G1 X100.932 Y83.933 E.1026
G1 X103.661 Y83.138 E.1026
G1 X106.417 Y82.636 E.10115
G1 X106.505 Y82.693
G1 E-.56 F1800
;WIPE_START
G1 F3000
G1 X107.414 Y82.558 E-.24
;WIPE_END
G1 X107.298 Y86.372 Z.4 F18000
