; HEADER_BLOCK_START
; generated by Creality_Print V6.0.4.1794 on 2025-03-11 at 14:07:34
; total layer number: 16
; filament_density: 1.24
; filament_diameter: 1.75
; max_z_height: 3.20
; HEADER_BLOCK_END

; MINX = 64.61
; MINY = 79.74
; MINZ = 0.00
; MAXX = 155.39
; MAXY = 140.26
; MAXZ = 3.15

; THUMBNAIL_BLOCK_START

;
; THUMBNAIL_BLOCK_END

; THUMBNAIL_BLOCK_START

;
; THUMBNAIL_BLOCK_END

; external perimeters extrusion width = 0.42mm
; perimeters extrusion width = 0.45mm
; infill extrusion width = 0.45mm
; solid infill extrusion width = 0.42mm
; top infill extrusion width = 0.42mm
; first layer extrusion width = 0.50mm

; EXECUTABLE_BLOCK_START
EXCLUDE_OBJECT_DEFINE NAME=task5.STL_id_0_copy_0 CENTER=110,110 POLYGON=[[64.6138,79.7425],[155.386,79.7425],[155.386,140.257],[64.6138,140.257],[64.6138,79.7425]]
M73 P0 R20
;TYPE:Custom
M220 S100 ;Reset Feedrate 
M221 S100 ;Reset Flowrate 
 
M140 S50 ;Set final bed temp  
G28 ;Home 
 
G92 E0 ;Reset Extruder 
G1 Z2.0 F3000 ;Move Z Axis up 
M104 S220 ;Set final nozzle temp  
G1 X-2.0 Y20 Z0.28 F5000.0 ;Move to start position 
M190 S50 ;Wait for bed temp to stabilize  
M109 S220 ;Wait for nozzle temp to stabilize  
G1 X-2.0 Y145.0 Z0.28 F1500.0 E15 ;Draw the first line 
G1 X-1.7 Y145.0 Z0.28 F5000.0 ;Move to side a little 
G1 X-1.7 Y20 Z0.28 F1500.0 E30 ;Draw the second line 
G92 E0 ;Reset Extruder 
G1 E-1.0000 F1800 ;Retract a bit 
G1 Z2.0 F3000 ;Move Z Axis up 
G1 E0.0000 F1800
G90
G21
M83 ; use relative distances for extrusion
; filament start gcode
SET_PRESSURE_ADVANCE ADVANCE=0.044; Override pressure advance value
G1 E-.8 F1800
M106 S0
;LAYER_CHANGE
;Z:0.2
;HEIGHT:0.2
;BEFORE_LAYER_CHANGE
;0.2
G92 E0

;_SET_FAN_SPEED_CHANGING_LAYER
SET_VELOCITY_LIMIT ACCEL=500 ACCEL_TO_DECEL=125
SET_VELOCITY_LIMIT SQUARE_CORNER_VELOCITY=9
; printing object task5.STL id:0 copy 0
EXCLUDE_OBJECT_START NAME=task5.STL_id_0_copy_0
G1 Z.2 F18000
G1 X154.029 Y139.4
G1 E.8 F1800
;TYPE:Inner wall
;WIDTH:0.499999
G1 F3000
G1 X65.471 Y139.4 E3.19748
G1 X65.471 Y80.6 E2.12306
M73 P1 R20
M73 P1 R20
G1 X154.529 Y80.6 E3.21553
G1 X154.529 Y139.4 E2.12306
G1 X154.069 Y139.4 E.01661
G1 X154.986 Y139.857 F18000
;TYPE:Outer wall
G1 F3000
G1 X65.014 Y139.857 E3.24854
G1 X65.014 Y80.143 E2.15606
M73 P1 R19
M73 P1 R19
G1 X154.986 Y80.143 E3.24854
G1 X154.986 Y139.817 E2.15462
G1 X154.908 Y139.842
M73 P2 R19
M73 P2 R19
G1 E-.56 F1800
;WIPE_START
G1 F3000
G1 X153.986 Y139.818 E-.24
;WIPE_END
G1 X150.293 Y138.857 Z.4 F18000
G1 X99.496 Y125.641 Z.4
G1 Z.2
G1 E.8 F1800
;TYPE:Inner wall
G1 F3000
G1 X99.578 Y125.083 E.02036
G1 X99.7 Y124.781 E.01174
G1 X99.942 Y124.573 E.01154
G1 X100.457 Y124.453 E.0191
G1 X100.727 Y124.461 E.00975
G1 X100.922 Y124.539 E.00758
G1 X101.146 Y124.747 E.01103
G1 X101.899 Y126.186 E.05863
G1 X103.429 Y125.926 E.05602
G1 X103.759 Y125.951 E.01196
G1 X104.025 Y126.114 E.01125
G1 X104.299 Y126.568 E.01917
G1 X104.377 Y126.866 E.01113
G1 X104.321 Y127.16 E.01078
G1 X104.182 Y127.365 E.00896
G1 X103.097 Y128.475 E.05602
G1 X103.816 Y129.849 E.05602
G1 X103.894 Y130.154 E.01137
G1 X103.845 Y130.422 E.00982
G1 X103.699 Y130.647 E.00969
G1 X103.393 Y130.947 E.01548
G1 X103.295 Y131.007 E.00414
G1 X102.985 Y131.082 E.01153
G1 X102.68 Y131.01 E.01129
G1 X101.29 Y130.321 E.05602
G1 X100.205 Y131.43 E.05602
G1 X99.955 Y131.593 E.01078
G1 X99.752 Y131.635 E.00748
G1 X99.411 Y131.565 E.01259
G1 X98.983 Y131.33 E.01762
G1 X98.823 Y131.131 E.00919
G1 X98.742 Y130.802 E.01223
G3 X98.976 Y129.173 I78.179 J10.363 E.05941
G1 X97.586 Y128.484 E.05602
G1 X97.346 Y128.287 E.01123
G1 X97.227 Y128.043 E.00978
G1 X97.212 Y127.77 E.00987
G1 X97.317 Y127.259 E.01884
G1 X97.5 Y127.025 E.01073
G1 X97.753 Y126.889 E.01038
G1 X99.352 Y126.618 E.05854
G1 X99.49 Y125.68 E.03421
G1 X99.756 Y127.013 F18000
;TYPE:Outer wall
G1 F3000
G1 X100.03 Y125.149 E.06801
G1 X100.11 Y125.007 E.0059
G1 X100.534 Y124.904 E.01574
G1 X100.689 Y124.932 E.00569
G1 X100.795 Y125.063 E.00608
G1 X101.648 Y126.692 E.06639
G1 X103.505 Y126.377 E.06801
G1 X103.682 Y126.421 E.00658
G1 X103.914 Y126.83 E.01699
G1 X103.885 Y127.016 E.00678
G1 X102.538 Y128.392 E.06953
G1 X103.411 Y130.061 E.06801
G1 X103.429 Y130.228 E.00605
G1 X103.148 Y130.556 E.0156
G1 X103.088 Y130.6 E.00268
G1 X102.905 Y130.612 E.00664
G1 X101.196 Y129.764 E.06888
G1 X99.878 Y131.111 E.06801
G1 X99.727 Y131.179 E.00599
G1 X99.327 Y131.013 E.01566
G1 X99.207 Y130.867 E.00682
G3 X99.476 Y128.912 I32.785 J3.517 E.07127
G1 X97.789 Y128.075 E.06801
G1 X97.69 Y127.981 E.00491
G1 X97.664 Y127.837 E.00528
G1 X97.744 Y127.43 E.01496
G1 X97.874 Y127.332 E.00588
G1 X99.716 Y127.019 E.06748
G1 X99.718 Y126.942
G1 E-.56 F1800
;WIPE_START
G1 F3000
G1 X99.882 Y126.033 E-.24
;WIPE_END
G1 X98.645 Y129.643 Z.4 F18000
G1 X97.509 Y132.959 Z.4
G1 Z.2
G1 E.8 F1800
;TYPE:Inner wall
G1 F3000
G1 X98.09 Y133.095 E.02157
G1 X98.359 Y133.225 E.01078
G1 X98.569 Y133.503 E.01259
G1 X98.645 Y134.024 E.019
G1 X98.627 Y134.245 E.00801
G1 X98.517 Y134.483 E.00948
G1 X98.266 Y134.697 E.01192
G1 X96.767 Y135.329 E.05873
G1 X96.901 Y136.908 E.05723
G1 X96.875 Y137.162 E.00922
G1 X96.748 Y137.401 E.00974
G1 X96.484 Y137.598 E.01191
G1 X96.041 Y137.766 E.0171
G1 X95.75 Y137.754 E.0105
G1 X95.404 Y137.539 E.01473
G1 X94.367 Y136.34 E.05723
G1 X92.906 Y136.955 E.05723
G1 X92.616 Y137.009 E.01067
G1 X92.332 Y136.936 E.01059
G1 X92.122 Y136.772 E.00963
G1 X91.8 Y136.349 E.01919
G1 X91.747 Y136.034 E.01153
G1 X91.844 Y135.726 E.01165
G1 X92.664 Y134.37 E.05723
G1 X91.627 Y133.171 E.05723
G1 X91.531 Y133.025 E.00633
G1 X91.463 Y132.786 E.00896
G1 X91.507 Y132.476 E.01132
G1 X91.814 Y131.977 E.02116
G1 X92.06 Y131.811 E.0107
G1 X92.368 Y131.757 E.01128
G1 X94.011 Y132.142 E.06094
G1 X94.831 Y130.785 E.05723
G1 X95.008 Y130.591 E.00948
G1 X95.281 Y130.468 E.01082
G1 X95.574 Y130.472 E.01058
G1 X96.029 Y130.596 E.01704
G1 X96.285 Y130.811 E.01206
G1 X96.398 Y131.059 E.00983
G3 X96.547 Y132.734 I-93.587 J9.163 E.06073
G1 X97.47 Y132.95 E.03421
G1 X96.12 Y133.104 F18000
;TYPE:Outer wall
G1 F3000
G1 X97.986 Y133.54 E.06922
G1 X98.12 Y133.63 E.00583
G1 X98.162 Y133.743 E.00436
G1 X98.17 Y134.175 E.0156
G1 X98.05 Y134.292 E.00605
G1 X96.283 Y135.037 E.06922
G1 X96.445 Y136.947 E.06922
G1 X96.394 Y137.111 E.0062
G1 X96.011 Y137.301 E.01545
G1 X95.865 Y137.312 E.00529
G1 X95.749 Y137.24 E.00491
G1 X94.496 Y135.79 E.06922
G1 X92.729 Y136.534 E.06922
G1 X92.601 Y136.549 E.00466
G1 X92.467 Y136.473 E.00554
G1 X92.22 Y136.17 E.0141
G1 X92.223 Y135.983 E.00676
G1 X93.227 Y134.322 E.07007
G1 X91.973 Y132.872 E.06922
G1 X91.933 Y132.64 E.0085
G1 X92.185 Y132.258 E.01653
G1 X92.364 Y132.226 E.00655
G1 X94.231 Y132.662 E.06922
G1 X95.222 Y131.022 E.06922
G1 X95.344 Y130.924 E.00564
G1 X95.47 Y130.917 E.00455
G1 X95.875 Y131.036 E.01524
G1 X95.958 Y131.194 E.00642
G1 X96.116 Y133.064 E.06777
G1 X96.193 Y133.072
G1 E-.56 F1800
;WIPE_START
G1 F3000
G1 X97.085 Y133.311 E-.24
;WIPE_END
G1 X98.708 Y129.856 Z.4 F18000
G1 X103.839 Y118.931 Z.4
G1 Z.2
G1 E.8 F1800
;TYPE:Inner wall
G1 F3000
G1 X104.323 Y119.309 E.02217
G1 X104.521 Y119.556 E.01142
G1 X104.587 Y119.866 E.01147
G1 X104.546 Y120.083 E.00797
G1 X104.352 Y120.547 E.01814
G1 X104.165 Y120.726 E.00935
G1 X103.901 Y120.84 E.01039
G1 X102.168 Y120.782 E.06261
G1 X101.622 Y122.287 E.05783
G1 X101.482 Y122.518 E.00975
G3 X101.163 Y122.714 I-.504 J-.465 E.01368
G1 X100.653 Y122.729 E.0184
G1 X100.376 Y122.668 E.01023
G1 X100.101 Y122.443 E.01285
G1 X99.999 Y122.232 E.00845
G1 X99.555 Y120.693 E.05783
G1 X97.955 Y120.639 E.05783
G1 X97.717 Y120.588 E.00879
G1 X97.479 Y120.424 E.01044
G1 X97.319 Y120.143 E.01164
G1 X97.204 Y119.665 E.01777
G1 X97.267 Y119.357 E.01135
G1 X97.492 Y119.087 E.01266
G1 X98.832 Y118.181 E.05843
G1 X98.389 Y116.642 E.05783
G1 X98.373 Y116.333 E.01115
G1 X98.472 Y116.081 E.0098
G1 X98.667 Y115.882 E.01006
G1 X99.055 Y115.638 E.01655
G1 X99.288 Y115.587 E.0086
G1 X99.645 Y115.662 E.01317
G1 X100.998 Y116.717 E.06196
G1 X102.325 Y115.82 E.05783
G1 X102.601 Y115.71 E.01071
G1 X102.922 Y115.736 E.01163
G1 X103.131 Y115.847 E.00853
G1 X103.52 Y116.187 E.01869
G1 X103.639 Y116.478 E.01135
G1 X103.631 Y116.75 E.00983
G1 X103.06 Y118.324 E.06044
G1 X103.807 Y118.907 E.03421
G1 X102.517 Y118.48 F18000
;TYPE:Outer wall
G1 F3000
G1 X104.042 Y119.669 E.06982
G1 X104.128 Y119.821 E.0063
G1 X103.992 Y120.263 E.01669
G1 X103.836 Y120.381 E.00704
G1 X101.852 Y120.314 E.07169
G1 X101.192 Y122.131 E.06982
G1 X101.091 Y122.252 E.00569
G1 X100.937 Y122.281 E.00563
G1 X100.564 Y122.251 E.01353
G1 X100.441 Y122.116 E.0066
G1 X99.903 Y120.248 E.0702
G1 X97.97 Y120.182 E.06982
G1 X97.811 Y120.11 E.00629
G1 X97.662 Y119.67 E.01678
G1 X97.682 Y119.55 E.00441
G1 X97.761 Y119.457 E.00441
G1 X99.363 Y118.373 E.06982
G1 X98.828 Y116.515 E.06982
G1 X98.856 Y116.328 E.00683
G1 X99.227 Y116.061 E.01652
G1 X99.421 Y116.067 E.007
G1 X100.979 Y117.281 E.07132
G1 X102.581 Y116.198 E.06982
G1 X102.753 Y116.163 E.00633
G1 X103.133 Y116.433 E.01684
G1 X103.194 Y116.613 E.00685
G1 X102.531 Y118.443 E.07028
G1 X102.597 Y118.482
G1 E-.56 F1800
;WIPE_START
G1 F3000
G1 X103.307 Y119.073 E-.24
;WIPE_END
G1 X99.736 Y117.728 Z.4 F18000
G1 X93.37 Y115.332 Z.4
G1 Z.2
G1 E.8 F1800
;TYPE:Inner wall
G1 F3000
G1 X92.812 Y115.545 E.02157
G1 X92.528 Y115.589 E.01039
G1 X92.228 Y115.5 E.01129
G1 X92.034 Y115.334 E.0092
G1 X91.755 Y114.964 E.01674
G1 X91.682 Y114.689 E.01027
G1 X91.739 Y114.362 E.01198
G1 X92.659 Y112.953 E.06077
G1 X91.664 Y111.719 E.05723
G1 X91.535 Y111.464 E.01032
G1 X91.525 Y111.16 E.01098
G1 X91.624 Y110.914 E.00958
G1 X91.938 Y110.491 E.01903
G1 X92.22 Y110.352 E.01136
G1 X92.454 Y110.332 E.00845
G1 X94.082 Y110.772 E.06091
G1 X94.948 Y109.445 E.05723
G1 X95.18 Y109.225 E.01151
G1 X95.486 Y109.135 E.01151
G1 X95.701 Y109.157 E.00784
G1 X96.202 Y109.326 E.01906
G1 X96.422 Y109.554 E.01147
G1 X96.513 Y109.799 E.00941
G1 X96.596 Y111.452 E.05975
G1 X98.126 Y111.865 E.05723
G1 X98.408 Y112.019 E.0116
G1 X98.578 Y112.26 E.01064
G1 X98.632 Y112.493 E.00863
G1 X98.63 Y113.004 E.01847
G3 X98.412 Y113.365 I-.667 J-.157 E.01549
G1 X97.946 Y113.587 E.01861
G1 X96.726 Y114.052 E.04714
G1 X96.806 Y115.635 E.05723
G1 X96.752 Y115.937 E.01105
G1 X96.597 Y116.163 E.0099
G1 X96.365 Y116.31 E.00993
G1 X95.875 Y116.467 E.0186
G1 X95.603 Y116.434 E.00988
G1 X95.325 Y116.26 E.01185
G1 X94.293 Y114.98 E.05935
G1 X93.408 Y115.318 E.03421
G1 X94.441 Y114.435 F18000
;TYPE:Outer wall
G1 F3000
G1 X92.649 Y115.118 E.06922
G1 X92.486 Y115.118 E.00589
G1 X92.39 Y115.048 E.0043
G1 X92.146 Y114.712 E.01499
G1 X92.164 Y114.548 E.00595
G1 X93.223 Y112.924 E.07
G1 X92.02 Y111.432 E.06922
G1 X91.971 Y111.26 E.00645
G1 X92.211 Y110.859 E.01689
G1 X92.377 Y110.784 E.00655
G1 X94.283 Y111.3 E.0713
G1 X95.331 Y109.694 E.06922
M73 P3 R19
M73 P3 R19
G1 X95.474 Y109.596 E.00627
G1 X95.925 Y109.694 E.01665
G1 X96.057 Y109.832 E.0069
G1 X96.156 Y111.806 E.07135
G1 X98.007 Y112.306 E.06922
G1 X98.145 Y112.413 E.00629
G1 X98.191 Y112.865 E.01641
G1 X98.113 Y113.02 E.00627
G3 X96.253 Y113.744 I-21.376 J-52.167 E.07205
G1 X96.349 Y115.658 E.06922
G1 X96.28 Y115.834 E.00683
G1 X95.839 Y116.012 E.01715
G1 X95.665 Y115.954 E.00662
G1 X94.466 Y114.466 E.06901
G1 X94.398 Y114.502
G1 E-.56 F1800
;WIPE_START
G1 F3000
G1 X93.524 Y114.804 E-.24
;WIPE_END
G1 X89.977 Y116.21 Z.4 F18000
G1 X85.921 Y117.818 Z.4
G1 Z.2
G1 E.8 F1800
;TYPE:Inner wall
G1 F3000
G1 X85.922 Y117.837 E.00071
G3 X84.048 Y123.638 I-285.722 J-89.136 E.22011
G1 X88.887 Y127.154 E.21597
G1 X89.093 Y127.394 E.01144
G1 X89.169 Y127.702 E.01143
G1 X89.136 Y127.92 E.00799
G1 X88.987 Y128.34 E.01609
G1 X88.793 Y128.564 E.0107
G1 X88.484 Y128.692 E.01205
G3 X82.403 Y128.699 I-3.442 J-336.334 E.21957
G1 X80.555 Y134.388 E.21597
G1 X80.405 Y134.643 E.01067
G1 X80.098 Y134.833 E.01305
G1 X79.582 Y134.861 E.01864
G1 X79.387 Y134.833 E.00712
G1 X79.08 Y134.643 E.01305
G1 X78.93 Y134.388 E.01067
G1 X77.082 Y128.699 E.21597
G1 X71.1 Y128.699 E.21597
G1 X70.857 Y128.654 E.00894
G1 X70.624 Y128.506 E.00997
G3 X70.349 Y127.92 I1.039 J-.844 E.02359
G1 X70.326 Y127.59 E.01196
G1 X70.392 Y127.395 E.00745
G1 X70.598 Y127.154 E.01145
G1 X75.437 Y123.638 E.21597
G1 X73.589 Y117.949 E.21597
G1 X73.566 Y117.619 E.01196
G1 X73.699 Y117.317 E.01192
G1 X74.097 Y116.994 E.01849
G1 X74.385 Y116.873 E.01126
G1 X74.698 Y116.892 E.01132
G1 X74.903 Y116.994 E.00829
G1 X79.743 Y120.51 E.21597
G1 X84.582 Y116.994 E.21597
G1 X84.854 Y116.876 E.01071
G1 X85.176 Y116.89 E.01163
G1 X85.388 Y116.994 E.00853
G1 X85.738 Y117.262 E.0159
G1 X85.895 Y117.521 E.01094
G1 X85.917 Y117.778 E.00932
G1 X85.409 Y117.579 F18000
;TYPE:Outer wall
G1 F3000
G1 X85.472 Y117.724 E.00571
G1 X85.205 Y118.596 E.03294
G1 X83.51 Y123.813 E.19804
G1 X88.618 Y127.524 E.22796
G1 X88.709 Y127.67 E.00622
G1 X88.602 Y128.084 E.01543
G1 X88.479 Y128.222 E.00669
G1 X87.682 Y128.242 E.02879
G1 X82.071 Y128.242 E.20257
G1 X80.12 Y134.246 E.22796
G1 X80.025 Y134.369 E.00559
G1 X79.903 Y134.404 E.00461
G1 X79.517 Y134.395 E.01392
G1 X79.377 Y134.284 E.00646
G1 X77.414 Y128.242 E.22938
G1 X71.1 Y128.242 E.22796
G1 X70.941 Y128.178 E.00619
G1 X70.784 Y127.779 E.01547
G1 X70.801 Y127.572 E.00751
G1 X75.975 Y123.813 E.23092
G1 X74.024 Y117.808 E.22796
G1 X74.041 Y117.626 E.00659
G1 X74.415 Y117.337 E.01707
G1 X74.602 Y117.34 E.00674
G1 X79.743 Y121.075 E.22943
G1 X84.85 Y117.364 E.22796
G1 X85.026 Y117.324 E.00649
G1 X85.375 Y117.556 E.01516
G1 X85.44 Y117.574
G1 E-.56 F1800
;WIPE_START
G1 F3000
G1 X85.472 Y117.724 E-.04634
G1 X85.236 Y118.495 E-.19366
;WIPE_END
G1 Z.4 F18000
G1 X154.392 Y81.661
G1 Z.4
G1 Z.2
G1 E.8 F1800
;TYPE:Bottom surface
;WIDTH:0.500064
G1 F6300
G1 X153.674 Y80.942 E.03669
G1 X153.027 Y80.942 E.02335
G1 X154.186 Y82.102 E.0592
G1 X154.186 Y82.748 E.02335
G1 X152.381 Y80.942 E.09222
G1 X151.734 Y80.942 E.02335
G1 X154.186 Y83.395 E.12523
G1 X154.186 Y84.041 E.02335
G1 X151.088 Y80.942 E.15825
G1 X150.441 Y80.942 E.02335
G1 X154.186 Y84.688 E.19126
G1 X154.186 Y85.334 E.02335
G1 X149.795 Y80.942 E.22428
G1 X149.148 Y80.942 E.02335
G1 X154.186 Y85.981 E.2573
G1 X154.186 Y86.627 E.02335
G1 X148.502 Y80.942 E.29031
G1 X147.855 Y80.942 E.02335
G1 X154.186 Y87.274 E.32333
G1 X154.186 Y87.92 E.02335
G1 X147.209 Y80.942 E.35634
G1 X146.562 Y80.942 E.02335
G1 X154.186 Y88.567 E.38936
G1 X154.186 Y89.213 E.02335
G1 X145.916 Y80.942 E.42238
G1 X145.269 Y80.942 E.02335
G1 X154.186 Y89.86 E.45539
G1 X154.186 Y90.506 E.02335
G1 X144.623 Y80.942 E.48841
G1 X143.976 Y80.942 E.02335
G1 X154.186 Y91.153 E.52142
G1 X154.186 Y91.799 E.02335
G1 X143.33 Y80.942 E.55444
G1 X142.683 Y80.942 E.02335
G1 X154.186 Y92.446 E.58746
G1 X154.186 Y93.092 E.02335
G1 X142.037 Y80.942 E.62047
G1 X141.39 Y80.942 E.02335
G1 X154.186 Y93.739 E.65349
G1 X154.186 Y94.385 E.02335
G1 X140.744 Y80.942 E.6865
G1 X140.097 Y80.942 E.02335
M73 P4 R19
M73 P4 R19
G1 X154.186 Y95.032 E.71952
G1 X154.186 Y95.678 E.02335
G1 X139.451 Y80.942 E.75254
G1 X138.804 Y80.942 E.02335
G1 X154.186 Y96.325 E.78555
G1 X154.186 Y96.971 E.02335
G1 X138.158 Y80.942 E.81857
G1 X137.511 Y80.942 E.02335
G1 X154.186 Y97.618 E.85158
G1 X154.186 Y98.264 E.02335
G1 X136.865 Y80.942 E.8846
G1 X136.218 Y80.942 E.02335
G1 X154.186 Y98.911 E.91762
G1 X154.186 Y99.557 E.02335
G1 X135.572 Y80.942 E.95063
G1 X134.925 Y80.942 E.02335
G1 X154.186 Y100.204 E.98365
G1 X154.186 Y100.85 E.02335
G1 X134.279 Y80.942 E1.01666
G1 X133.632 Y80.942 E.02335
G1 X154.186 Y101.497 E1.04968
G1 X154.186 Y102.143 E.02335
G1 X132.986 Y80.942 E1.0827
G1 X132.339 Y80.942 E.02335
G1 X154.186 Y102.79 E1.11571
G1 X154.186 Y103.436 E.02335
G1 X131.693 Y80.942 E1.14873
G1 X131.046 Y80.942 E.02335
G1 X154.186 Y104.083 E1.18174
G1 X154.186 Y104.729 E.02335
G1 X130.4 Y80.942 E1.21476
G1 X129.753 Y80.942 E.02335
G1 X154.186 Y105.376 E1.24777
G1 X154.186 Y106.022 E.02335
G1 X129.107 Y80.942 E1.28079
G1 X128.46 Y80.942 E.02335
G1 X154.186 Y106.669 E1.31381
G1 X154.186 Y107.315 E.02335
G1 X127.814 Y80.942 E1.34682
G1 X127.167 Y80.942 E.02335
G1 X154.186 Y107.962 E1.37984
G1 X154.186 Y108.608 E.02335
G1 X126.521 Y80.942 E1.41285
