; HEADER_BLOCK_START
; generated by Creality_Print V6.1.0.2041 on 2025-04-05 at 04:28:55
; total layer number: 348
; filament_density: 1.24
; filament_diameter: 1.75
; max_z_height: 53.20
; HEADER_BLOCK_END

; MINX = 88.52
; MINY = 91.54
; MINZ = 0.00
; MAXX = 131.48
; MAXY = 128.46
; MAXZ = 53.29

; THUMBNAIL_BLOCK_START

;
; THUMBNAIL_BLOCK_END

; THUMBNAIL_BLOCK_START

;
; THUMBNAIL_BLOCK_END

; external perimeters extrusion width = 0.42mm
; perimeters extrusion width = 0.45mm
; infill extrusion width = 0.45mm
; solid infill extrusion width = 0.42mm
; top infill extrusion width = 0.42mm
; support material extrusion width = 0.42mm
; first layer extrusion width = 0.50mm

; EXECUTABLE_BLOCK_START
EXCLUDE_OBJECT_DEFINE NAME=task8.STL_id_0_copy_0 CENTER=110,110 POLYGON=[[88.5207,98.7341],[88.5563,98.2936],[88.8815,97.8567],[89.4919,97.4295],[90.3793,97.0177],[91.5316,96.6268],[104.283,92.4055],[106.533,91.8277],[108.838,91.5365],[111.162,91.5365],[113.467,91.8277],[115.717,92.4055],[128.468,96.6268],[129.621,97.0177],[130.508,97.4295],[131.118,97.8567],[131.444,98.2936],[131.479,98.7341],[131.479,121.266],[131.444,121.706],[131.118,122.143],[130.508,122.57],[129.621,122.982],[128.468,123.373],[115.717,127.595],[113.467,128.172],[111.162,128.463],[108.838,128.463],[106.533,128.172],[104.283,127.595],[91.5316,123.373],[90.3793,122.982],[89.4919,122.57],[88.8815,122.143],[88.5563,121.706],[88.5207,121.266],[88.5207,98.7341]]
M73 P0 R47
;TYPE:Custom
M220 S100 ;Reset Feedrate 
M221 S100 ;Reset Flowrate 
 
M140 S50 ;Set final bed temp  
G28 ;Home 
 
G92 E0 ;Reset Extruder 
G1 Z2.0 F3000 ;Move Z Axis up 
M104 S220 ;Set final nozzle temp  
G1 X-2.0 Y20 Z0.28 F5000.0 ;Move to start position 
M190 S50 ;Wait for bed temp to stabilize  
M109 S220 ;Wait for nozzle temp to stabilize  
G1 X-2.0 Y145.0 Z0.28 F1500.0 E15 ;Draw the first line 
G1 X-1.7 Y145.0 Z0.28 F5000.0 ;Move to side a little 
G1 X-1.7 Y20 Z0.28 F1500.0 E30 ;Draw the second line 
G92 E0 ;Reset Extruder 
G1 E-1.0000 F1800 ;Retract a bit 
G1 Z2.0 F3000 ;Move Z Axis up 
G1 E0.0000 F1800
G90
G21
M83 ; use relative distances for extrusion
; filament start gcode
SET_PRESSURE_ADVANCE ADVANCE=0.044; Override pressure advance value
G1 E-.8 F1800
M106 S0
;LAYER_CHANGE
;Z:0.2
;HEIGHT:0.2
;BEFORE_LAYER_CHANGE
;0.2
G92 E0

;_SET_FAN_SPEED_CHANGING_LAYER
SET_VELOCITY_LIMIT ACCEL=500 ACCEL_TO_DECEL=125
SET_VELOCITY_LIMIT SQUARE_CORNER_VELOCITY=9
; printing object task8.STL id:0 copy 0
EXCLUDE_OBJECT_START NAME=task8.STL_id_0_copy_0
G1 Z.2 F18000
G1 X104.668 Y91.86
G1 E.8 F1800
;TYPE:Support
;WIDTH:0.5
G1 F3000
G2 X91.891 Y104.587 I5.386 J18.185 E.67854
G1 X90.799 Y104.343 E.04038
G1 X90.799 Y93.676 E.38512
G1 X93.676 Y93.676 E.10388
G1 X93.676 Y90.799 E.10388
G1 X104.465 Y90.799 E.38955
G1 X104.655 Y91.793 E.03653
G1 X103.906 Y91.869 F18000
G1 F3000
G1 X103.906 Y91.21 E.02377
G1 X103.398 Y91.21 E.01834
G1 X103.398 Y91.849 E.02304
G1 X102.89 Y92.05 E.01972
G1 X102.89 Y91.21 E.0303
G1 X102.382 Y91.21 E.01834
G1 X102.382 Y92.251 E.03756
G1 X101.874 Y92.452 E.01972
G1 X101.874 Y91.21 E.04482
G1 X101.366 Y91.21 E.01834
G1 X101.366 Y92.714 E.05428
G1 X100.858 Y92.993 E.02092
G1 X100.858 Y91.21 E.06436
G1 X100.351 Y91.21 E.01834
G1 X100.351 Y93.272 E.07444
G1 X99.843 Y93.551 E.02092
G1 X99.843 Y91.21 E.08452
G1 X99.335 Y91.21 E.01834
G1 X99.335 Y93.884 E.09654
G1 X98.827 Y94.253 E.02266
G1 X98.827 Y91.21 E.10985
G1 X98.319 Y91.21 E.01834
G1 X98.319 Y94.622 E.12317
G1 X97.811 Y94.991 E.02266
G1 X97.811 Y91.21 E.13649
G1 X97.303 Y91.21 E.01834
G1 X97.303 Y95.437 E.15261
G1 X96.795 Y95.914 E.02515
G1 X96.795 Y91.21 E.16983
G1 X96.288 Y91.21 E.01834
G1 X96.288 Y96.391 E.18705
G2 X95.78 Y96.9 I1.982 J2.487 E.02601
G1 X95.78 Y91.21 E.20542
G1 X95.272 Y91.21 E.01834
G1 X95.272 Y97.514 E.22758
G1 X94.764 Y98.128 E.02877
G1 X94.764 Y91.21 E.24975
G1 X94.256 Y91.21 E.01834
G1 X94.256 Y98.776 E.27316
G1 X93.748 Y99.576 E.03423
G1 X93.748 Y94.088 E.19818
G1 X93.24 Y94.088 E.01834
G1 X93.24 Y100.377 E.22708
G2 X92.733 Y101.349 I3.825 J2.617 E.0397
G1 X92.733 Y94.088 E.26219
G1 X92.225 Y94.088 E.01834
G1 X92.225 Y102.429 E.30117
G2 X91.717 Y103.79 I5.372 J2.779 E.05259
G1 X91.717 Y93.882 E.35775
G1 E-.56 F1800
;WIPE_START
G1 F3000
G1 X91.717 Y94.882 E-.24
;WIPE_END
G1 X95.53 Y94.728 Z.4 F18000
G1 X111.601 Y94.08 Z.4
G1 Z.2
G1 E.8 F1800
G1 F3000
G3 X123.447 Y101.38 I-1.742 J16.087 E.5193
G1 X123.447 Y102.307 E.0335
G1 X124 Y102.307 E.01998
G3 X124 Y117.693 I-13.776 J7.693 E.58026
G1 X123.447 Y117.693 E.01998
G1 X123.447 Y118.62 E.03348
G3 X96.553 Y118.624 I-13.448 J-8.561 E1.1555
G1 X96.553 Y117.693 E.03365
G3 X95.719 Y117.216 I-.276 J-.485 E.04175
G3 X96.001 Y102.307 I14.217 J-7.188 E.56029
G1 X96.553 Y102.307 E.01993
G3 X96.808 Y100.945 I1.278 J-.466 E.05252
G3 X111.533 Y94.078 I13.184 J9.049 E.61534
G1 X109.124 Y99.086 F18000
G1 F3000
G3 X107.33 Y99.38 I.869 J10.897 E2.41415
G1 X109.056 Y99.094 E.06315
G1 E-.56 F1800
;WIPE_START
G1 F3000
G1 X108.069 Y99.258 E-.24
;WIPE_END
G1 X110.951 Y101.759 Z.4 F18000
G1 X125.236 Y114.159 Z.4
G1 Z.2
G1 E.8 F1800
G1 F3000
G1 X125.236 Y106.875 E.26301
G2 X124.728 Y105 I-7.204 J.946 E.07032
G1 X124.728 Y115 E.36106
G3 X124.22 Y116.345 I-5.255 J-1.217 E.05205
G1 X124.22 Y103.655 E.45818
G1 X123.712 Y102.719 E.03846
G1 X123.712 Y117.281 E.52579
G1 X123.205 Y117.281 E.01834
G1 X123.205 Y102.719 E.52579
G1 X123.035 Y102.719 E.00611
G1 X123.035 Y101.507 E.04375
G1 X122.697 Y101.014 E.02161
G1 X122.697 Y118.986 E.64891
G3 X122.189 Y119.71 I-2.943 J-1.523 E.03204
G1 X122.189 Y100.29 E.70118
G1 X121.681 Y99.729 E.02734
G1 X121.681 Y120.272 E.74174
G1 X121.173 Y120.833 E.02734
G1 X121.173 Y99.167 E.7823
G2 X120.665 Y98.65 I-2.169 J1.622 E.02625
G1 X120.665 Y106.12 E.26972
G1 X120.157 Y104.962 E.04566
G1 X120.157 Y98.22 E.2434
G1 X119.649 Y97.791 E.02401
G1 X119.649 Y104.063 E.22646
G1 X119.142 Y103.286 E.03354
G1 X119.142 Y97.383 E.21311
G1 X118.634 Y97.059 E.02175
G1 X118.634 Y102.657 E.20211
G1 X118.126 Y102.105 E.02707
G1 X118.126 Y96.735 E.1939
G1 X117.618 Y96.411 E.02175
G1 X117.618 Y101.578 E.18656
G1 X117.11 Y101.182 E.02324
M73 P1 R47
M73 P1 R47
G1 X117.11 Y96.153 E.18159
G1 X116.602 Y95.917 E.02021
G1 X116.602 Y100.787 E.17583
G2 X116.094 Y100.421 I-1.572 J1.644 E.02269
G1 X116.094 Y95.682 E.1711
G2 X115.587 Y95.448 I-1.121 J1.772 E.02024
G1 X115.587 Y100.146 E.1696
G1 X115.079 Y99.871 E.02085
G1 X115.079 Y95.291 E.16537
G1 X114.571 Y95.133 E.0192
G1 X114.571 Y99.599 E.16123
G2 X114.063 Y99.42 I-1.328 J2.971 E.01946
G1 X114.063 Y94.976 E.16048
G2 X113.555 Y94.827 I-.809 J1.813 E.01917
G1 X113.555 Y99.246 E.15958
G1 X113.047 Y99.072 E.01939
G1 X113.047 Y94.741 E.15639
G1 X112.539 Y94.655 E.0186
G1 X112.539 Y98.941 E.15476
G1 X112.031 Y98.857 E.01859
G1 X112.031 Y94.57 E.15479
G2 X111.524 Y94.489 I-.554 J1.845 E.01862
G1 X111.524 Y98.772 E.15465
G1 X111.016 Y98.687 E.01859
G1 X111.016 Y94.472 E.1522
G1 X110.508 Y94.455 E.01835
G1 X110.508 Y98.674 E.15235
G1 X110 Y98.674 E.01834
G1 X110 Y94.438 E.15296
G1 X109.492 Y94.421 E.01835
G1 X109.492 Y98.674 E.15356
G2 X108.984 Y98.689 I-.196 J2.037 E.01839
G1 X108.984 Y94.47 E.15232
G1 X108.476 Y94.521 E.01843
G1 X108.476 Y98.773 E.15352
G1 X107.969 Y98.858 E.01859
G1 X107.969 Y94.572 E.15472
G1 X107.461 Y94.624 E.01843
G1 X107.461 Y98.942 E.15591
G2 X106.953 Y99.072 I.196 J1.822 E.01899
G1 X106.953 Y94.737 E.15651
G1 X106.445 Y94.858 E.01885
G1 X106.445 Y99.246 E.15843
G1 X105.937 Y99.42 E.01939
G1 X105.937 Y94.979 E.16036
G1 X105.429 Y95.1 E.01885
G1 X105.429 Y99.599 E.16242
G2 X104.921 Y99.871 I1.39 J3.203 E.02083
G1 X104.921 Y95.289 E.16542
G1 X104.413 Y95.485 E.01965
G1 X104.413 Y100.146 E.16829
G1 X103.906 Y100.421 E.02085
G1 X103.906 Y95.68 E.17115
G2 X103.398 Y95.882 I.495 J1.983 E.01979
G1 X103.398 Y100.787 E.17709
G1 X102.89 Y101.183 E.02324
G1 X102.89 Y96.161 E.18132
G1 X102.382 Y96.439 E.02091
G1 X102.382 Y101.578 E.18555
G2 X101.874 Y102.105 I1.726 J2.173 E.02649
G1 X101.874 Y96.718 E.19451
G2 X101.366 Y97.042 I.953 J2.052 E.02182
G1 X101.366 Y102.657 E.20273
G2 X100.858 Y103.285 I1.827 J1.995 E.02929
G1 X100.858 Y97.416 E.21192
G1 X100.351 Y97.79 E.02278
G1 X100.351 Y104.063 E.22647
G2 X99.843 Y104.963 I2.661 J2.094 E.03747
G1 X99.843 Y98.186 E.24469
G1 X99.335 Y98.677 E.02551
G1 X99.335 Y106.82 E.29401
G1 E-.56 F1800
;WIPE_START
G1 F3000
G1 X99.335 Y105.82 E-.24
;WIPE_END
G1 X102.401 Y108.092 Z.4 F18000
G1 X120.665 Y121.62 Z.4
G1 Z.2
G1 E.8 F1800
G1 F3000
G1 X120.665 Y113.88 E.27945
G1 X120.157 Y115.038 E.04565
G1 X120.157 Y121.78 E.24342
G1 X119.649 Y122.209 E.02401
G1 X119.649 Y115.937 E.22647
G1 X119.142 Y116.714 E.03351
G1 X119.142 Y122.616 E.21312
G1 X118.634 Y122.941 E.02176
G1 X118.634 Y117.343 E.20209
G1 X118.126 Y117.895 E.02707
G1 X118.126 Y123.265 E.19388
G1 X117.618 Y123.589 E.02176
G1 X117.618 Y118.422 E.18655
G1 X117.11 Y118.818 E.02324
G1 X117.11 Y123.847 E.18159
G1 X116.602 Y124.083 E.02021
G1 X116.602 Y119.213 E.17583
G3 X116.094 Y119.579 I-1.574 J-1.646 E.02269
G1 X116.094 Y124.318 E.1711
G3 X115.587 Y124.552 I-1.122 J-1.773 E.02024
G1 X115.587 Y119.854 E.1696
G1 X115.079 Y120.129 E.02085
G1 X115.079 Y124.709 E.16537
G1 X114.571 Y124.867 E.0192
G1 X114.571 Y120.401 E.16123
G3 X114.063 Y120.58 I-1.328 J-2.973 E.01945
G1 X114.063 Y125.024 E.16048
G3 X113.555 Y125.173 I-.808 J-1.815 E.01917
G1 X113.555 Y120.754 E.15956
G1 X113.047 Y120.928 E.01939
G1 X113.047 Y125.259 E.15636
G1 X112.539 Y125.345 E.0186
G1 X112.539 Y121.058 E.15476
G1 X112.031 Y121.143 E.01859
G1 X112.031 Y125.43 E.1548
G3 X111.524 Y125.511 I-.554 J-1.846 E.01862
G1 X111.524 Y121.228 E.15465
G1 X111.016 Y121.313 E.01859
G1 X111.016 Y125.528 E.15221
G1 X110.508 Y125.545 E.01835
G1 X110.508 Y121.325 E.15236
G1 X110 Y121.325 E.01834
G1 X110 Y125.562 E.15297
G1 X109.492 Y125.579 E.01835
G1 X109.492 Y121.325 E.15358
G3 X108.984 Y121.313 I-.202 J-2.115 E.01839
G1 X108.984 Y125.53 E.15226
G1 X108.476 Y125.479 E.01843
G1 X108.476 Y121.228 E.15348
G1 X107.969 Y121.143 E.01859
G1 X107.969 Y125.428 E.1547
G1 X107.461 Y125.377 E.01843
G1 X107.461 Y121.058 E.15591
G3 X106.953 Y120.928 I.199 J-1.831 E.01899
G1 X106.953 Y125.262 E.15649
G1 X106.445 Y125.141 E.01885
G1 X106.445 Y120.754 E.15842
G1 X105.937 Y120.58 E.01939
G1 X105.937 Y125.021 E.16035
G1 X105.429 Y124.9 E.01885
G1 X105.429 Y120.401 E.16242
G3 X104.921 Y120.129 I1.391 J-3.203 E.02083
G1 X104.921 Y124.711 E.16545
G1 X104.413 Y124.515 E.01965
G1 X104.413 Y119.854 E.1683
G1 X103.906 Y119.579 E.02085
G1 X103.906 Y124.32 E.17116
G3 X103.398 Y124.118 I.498 J-1.99 E.0198
G1 X103.398 Y119.213 E.17709
G1 X102.89 Y118.818 E.02324
G1 X102.89 Y123.839 E.18131
G1 X102.382 Y123.561 E.02091
M73 P1 R46
M73 P1 R46
G1 X102.382 Y118.422 E.18554
G3 X101.874 Y117.895 I1.745 J-2.188 E.02651
G1 X101.874 Y123.283 E.19453
G3 X101.366 Y122.957 I.958 J-2.054 E.02185
G1 X101.366 Y117.343 E.2027
G3 X100.858 Y116.714 I1.822 J-1.991 E.0293
G1 X100.858 Y122.583 E.21191
G1 X100.351 Y122.209 E.02277
G1 X100.351 Y115.937 E.22649
G3 X99.843 Y115.038 I2.655 J-2.094 E.0374
G1 X99.843 Y121.814 E.24464
G1 X99.335 Y121.323 E.02551
G1 X99.335 Y113.182 E.29395
G1 X98.827 Y121.118 F18000
G1 F3000
G1 X98.827 Y99.168 E.79251
G2 X98.319 Y99.695 I1.705 J2.152 E.02651
G1 X98.319 Y120.305 E.74411
G1 X97.811 Y119.662 E.02958
G1 X97.811 Y100.339 E.69768
G1 X97.303 Y100.982 E.02959
G1 X97.303 Y119.019 E.65124
G3 X96.965 Y118.512 I1.713 J-1.512 E.02208
G1 X96.965 Y117.281 E.04443
G1 X96.795 Y117.281 E.00611
G1 X96.795 Y102.719 E.52579
G1 X96.288 Y102.719 E.01834
G1 X96.236 Y117.281 E.5258
G3 X95.78 Y116.305 I3.397 J-2.181 E.03902
G1 X95.78 Y103.695 E.45529
G2 X95.272 Y104.895 I4.203 J2.486 E.0472
G1 X95.272 Y115.105 E.36863
G1 X94.764 Y113.251 E.06942
G1 X94.764 Y105.971 E.26284
G1 E-.56 F1800
;WIPE_START
G1 F3000
G1 X94.764 Y106.971 E-.24
;WIPE_END
G1 X93.882 Y110.684 Z.4 F18000
G1 X92.392 Y116.956 Z.4
G1 Z.2
G1 E.8 F1800
G1 F3000
G2 X104.668 Y128.14 I17.756 J-7.162 E.6202
G1 X104.466 Y129.201 E.039
G1 X93.676 Y129.201 E.38958
G1 X93.676 Y126.324 E.10388
G1 X90.799 Y126.324 E.10388
G1 X90.799 Y115.658 E.38512
G1 X91.891 Y115.413 E.04038
G1 X92.371 Y116.891 E.0561
G1 E-.56 F1800
;WIPE_START
G1 F3000
G1 X92.062 Y115.94 E-.24
;WIPE_END
G1 X94.626 Y118.766 Z.4 F18000
G1 X103.906 Y128.995 Z.4
G1 Z.2
G1 E.8 F1800
G1 F3000
G1 X103.906 Y128.352 E.02322
G1 X103.398 Y128.151 E.01972
G1 X103.398 Y128.79 E.02305
G1 X102.89 Y128.79 E.01834
G1 X102.89 Y127.95 E.03031
G1 X102.382 Y127.749 E.01972
G1 X102.382 Y128.79 E.03756
G1 X101.874 Y128.79 E.01834
G1 X101.874 Y127.548 E.04482
G3 X101.366 Y127.286 I.956 J-2.475 E.02068
G1 X101.366 Y128.79 E.05429
G1 X100.858 Y128.79 E.01834
G1 X100.858 Y127.007 E.06437
G1 X100.351 Y126.727 E.02093
G1 X100.351 Y128.79 E.07446
G1 X99.843 Y128.79 E.01834
G1 X99.843 Y126.448 E.08454
G3 X99.335 Y126.117 I1.195 J-2.386 E.02195
G1 X99.335 Y128.79 E.09651
G1 X98.827 Y128.79 E.01834
G1 X98.827 Y125.748 E.10984
G1 X98.319 Y125.378 E.02267
G1 X98.319 Y128.79 E.12316
G1 X97.811 Y128.79 E.01834
G1 X97.811 Y125.009 E.13649
G3 X97.303 Y124.563 I1.722 J-2.47 E.02447
G1 X97.303 Y128.79 E.15261
G1 X96.795 Y128.79 E.01834
G1 X96.795 Y124.086 E.16983
G1 X96.288 Y123.609 E.02515
G1 X96.288 Y128.79 E.18705
G1 X95.78 Y128.79 E.01834
G1 X95.78 Y123.1 E.20542
G1 X95.272 Y122.486 E.02877
G1 X95.272 Y128.79 E.22759
G1 X94.764 Y128.79 E.01834
G1 X94.764 Y121.872 E.24975
G3 X94.256 Y121.224 I2.596 J-2.557 E.02979
G1 X94.256 Y128.79 E.27315
G1 X94.088 Y128.79 E.00609
G1 X94.088 Y125.912 E.10388
G1 X93.748 Y125.912 E.01225
G1 X93.748 Y120.424 E.19816
G1 X93.24 Y119.624 E.03422
G1 X93.24 Y125.912 E.22705
G1 X92.733 Y125.912 E.01834
G1 X92.733 Y118.65 E.26222
G1 X92.225 Y117.571 E.04305
G1 X92.225 Y125.912 E.30117
G1 X91.717 Y125.912 E.01834
G1 X91.717 Y115.663 E.37007
G1 E-.56 F1800
;WIPE_START
G1 F3000
G1 X91.717 Y116.663 E-.24
;WIPE_END
G1 X95.532 Y116.561 Z.4 F18000
G1 X129.201 Y115.657 Z.4
G1 Z.2
M73 P2 R46
M73 P2 R46
G1 E.8 F1800
G1 F3000
G1 X129.201 Y126.324 E.38512
G1 X126.324 Y126.324 E.10388
G1 X126.324 Y129.201 E.10388
G1 X115.535 Y129.201 E.38956
G1 X115.332 Y128.14 E.03901
G2 X128.109 Y115.413 I-5.386 J-18.185 E.67855
G1 X129.134 Y115.642 E.03791
G1 X128.283 Y126.118 F18000
G1 F3000
G1 X128.283 Y116.21 E.35775
G3 X127.775 Y117.571 I-5.879 J-1.418 E.05259
G1 X127.775 Y125.912 E.30117
G1 X127.267 Y125.912 E.01834
G1 X127.267 Y118.651 E.2622
G3 X126.76 Y119.624 I-4.334 J-1.643 E.03973
G1 X126.76 Y125.912 E.22706
G1 X126.252 Y125.912 E.01834
G1 X126.252 Y120.424 E.19817
G1 X125.744 Y121.224 E.03422
G1 X125.744 Y128.79 E.27316
G1 X125.236 Y128.79 E.01834
G1 X125.236 Y121.872 E.24975
G1 X124.728 Y122.486 E.02877
G1 X124.728 Y128.79 E.22758
G1 X124.22 Y128.79 E.01834
G1 X124.22 Y123.1 E.20542
G3 X123.712 Y123.609 I-2.49 J-1.978 E.02601
G1 X123.712 Y128.79 E.18705
G1 X123.205 Y128.79 E.01834
G1 X123.205 Y124.086 E.16983
G1 X122.697 Y124.563 E.02515
G1 X122.697 Y128.79 E.15261
G1 X122.189 Y128.79 E.01834
G1 X122.189 Y125.009 E.13649
G1 X121.681 Y125.378 E.02266
G1 X121.681 Y128.79 E.12317
G1 X121.173 Y128.79 E.01834
G1 X121.173 Y125.747 E.10985
G1 X120.665 Y126.116 E.02266
G1 X120.665 Y128.79 E.09654
G1 X120.157 Y128.79 E.01834
G1 X120.157 Y126.449 E.08452
G1 X119.649 Y126.728 E.02092
G1 X119.649 Y128.79 E.07444
G1 X119.142 Y128.79 E.01834
G1 X119.142 Y127.007 E.06436
G1 X118.634 Y127.286 E.02092
G1 X118.634 Y128.79 E.05428
G1 X118.126 Y128.79 E.01834
G1 X118.126 Y127.548 E.04482
G1 X117.618 Y127.749 E.01972
G1 X117.618 Y128.79 E.03756
G1 X117.11 Y128.79 E.01834
G1 X117.11 Y127.95 E.0303
G1 X116.602 Y128.151 E.01972
G1 X116.602 Y128.79 E.02304
G1 X116.094 Y128.79 E.01834
G1 X116.094 Y128.131 E.02377
G1 E-.56 F1800
;WIPE_START
G1 F3000
G1 X116.094 Y128.79 E-.15797
G1 X116.436 Y128.79 E-.08203
;WIPE_END
G1 X117.471 Y125.116 Z.4 F18000
G1 X126.324 Y93.676 Z.4
G1 Z.2
G1 E.8 F1800
G1 F3000
G1 X129.201 Y93.676 E.10388
G1 X129.201 Y104.343 E.38512
G1 X128.109 Y104.587 E.04038
G2 X115.332 Y91.86 I-18.168 J5.463 E.67856
G1 X115.534 Y90.799 E.039
G1 X126.324 Y90.799 E.38958
G1 X126.324 Y93.608 E.1014
